!!!COM: Daser, Ludwig
!!!CDT: ~1526-1589/03/27
!!!OPR: Missa Preter rerum
!!!ONM: 3
!!!OTL: Credo
!!!AGN: Mass; Credo
!!!SCT: Das1002c
!!!SCA: Das1002c
!!!voices-OPR: 6
!!!voices: 6
**kern	**text	**kern	**text	**kern	**text	**kern	**text	**kern	**text	**kern	**text
*staff6	*staff6	*staff5	*staff5	*staff4	*staff4	*staff3	*staff3	*staff2	*staff2	*staff1	*staff1
*Ivox	*	*Ivox	*	*Ivox	*	*Ivox	*	*Ivox	*	*Ivox	*
*I"Bassus2	*	*I"Bassus1	*	*I"Tenor2	*	*I"Tenor1	*	*I"Contratenor	*	*I"Discantus	*
*I'B2	*	*I'B1	*	*I'T2	*	*I'T1	*	*I'Ct	*	*I'D	*
*>[A,B,C,D,E]	*>[A,B,C,D,E]	*>[A,B,C,D,E]	*>[A,B,C,D,E]	*>[A,B,C,D,E]	*>[A,B,C,D,E]	*>[A,B,C,D,E]	*>[A,B,C,D,E]	*>[A,B,C,D,E]	*>[A,B,C,D,E]	*>[A,B,C,D,E]	*>[A,B,C,D,E]
*>A	*>A	*>A	*>A	*>A	*>A	*>A	*>A	*>A	*>A	*>A	*>A
*clefF4	*	*clefF4	*	*clefGv2	*	*clefGv2	*	*clefGv2	*	*clefG2	*
*k[b-]	*	*k[b-]	*	*k[b-]	*	*k[b-]	*	*k[b-]	*	*k[b-]	*
*M2/1	*	*M2/1	*	*M2/1	*	*M2/1	*	*M2/1	*	*M2/1	*
*met(O2)	*	*met(O2)	*	*met(O2)	*	*met(O2)	*	*met(O2)	*	*met(O2)	*
!!section: Patrem
!!!OMD: Patrem
=1-	=1-	=1-	=1-	=1-	=1-	=1-	=1-	=1-	=1-	=1-	=1-
0r	.	0r	.	0r	.	0r	.	0r	.	1.g	Pa-
.	.	.	.	.	.	.	.	.	.	2a	-trem
=2.	=2	=2.	=2	=2.	=2	=2.	=2	=2.	=2	=2.	=2
0r	.	0r	.	0r	.	0r	.	0r	.	1b-	om-
.	.	.	.	.	.	.	.	.	.	1cc	-ni-
=3.	=3	=3.	=3	=3.	=3	=3.	=3	=3.	=3	=3.	=3
0r	.	0r	.	0r	.	0r	.	1.G	Pa-	2b-	-po-
.	.	.	.	.	.	.	.	.	.	2g	.
.	.	.	.	.	.	.	.	.	.	2b-	.
.	.	.	.	.	.	.	.	2A	-trem	2cc	.
=4	=4	=4	=4	=4	=4	=4	=4	=4	=4	=4	=4
0r	.	0r	.	0r	.	0r	.	1B-	om-	1dd	-ten-
.	.	.	.	.	.	.	.	1c	-ni-	1ee-i	.
=5.	=5	=5.	=5	=5.	=5	=5.	=5	=5.	=5	=5.	=5
0r	.	0r	.	0r	.	0r	.	2B-	-po-	1.dd	-tem,
.	.	.	.	.	.	.	.	2G	.	.	.
.	.	.	.	.	.	.	.	2B-	.	.	.
.	.	.	.	.	.	.	.	2c	.	4cc	.
.	.	.	.	.	.	.	.	.	.	4b-	.
=6.	=6	=6.	=6	=6.	=6	=6.	=6	=6.	=6	=6.	=6
0r	.	0r	.	0r	.	0r	.	1d	-ten-	2a	.
.	.	.	.	.	.	.	.	.	.	1b-	fa-
.	.	.	.	.	.	.	.	1e-i	.	.	.
.	.	.	.	.	.	.	.	.	.	4a	.
.	.	.	.	.	.	.	.	.	.	4g	.
=7	=7	=7	=7	=7	=7	=7	=7	=7	=7	=7	=7
0r	.	1.D	Fa-	0r	.	0r	.	1.d	-tem,	2.f	-cto-
.	.	.	.	.	.	.	.	.	.	4g	.
.	.	.	.	.	.	.	.	.	.	4a	.
.	.	.	.	.	.	.	.	.	.	4b-	.
.	.	2E	.	.	.	.	.	4c	.	[2cc	.
.	.	.	.	.	.	.	.	4B-	.	.	.
=8.	=8	=8.	=8	=8.	=8	=8.	=8	=8.	=8	=8.	=8
0r	.	1F	-cto-	0r	.	0r	.	2A	.	4cc]	.
.	.	.	.	.	.	.	.	.	.	4b-	.
.	.	.	.	.	.	.	.	2c	fa-	1a	.
.	.	1G	-rem	.	.	.	.	1B-	-cto-	.	.
.	.	.	.	.	.	.	.	.	.	2g	-rem
=9.	=9	=9.	=9	=9.	=9	=9.	=9	=9.	=9	=9.	=9
0r	.	2F	ce-	0r	.	0r	.	2A	-rem	1.a	ce-
.	.	2D	-li	.	.	.	.	1f	ce-	.	.
.	.	2F	et	.	.	.	.	.	.	.	.
.	.	2G	.	.	.	.	.	4e	.	4g	.
.	.	.	.	.	.	.	.	4d	.	4f	.
=10	=10	=10	=10	=10	=10	=10	=10	=10	=10	=10	=10
0r	.	1A	ter-	0r	.	0r	.	2c	-li	2e	-li
.	.	.	.	.	.	.	.	2.f	et	1a	et
.	.	1B-	.	.	.	.	.	.	.	.	.
.	.	.	.	.	.	.	.	4e	.	.	.
.	.	.	.	.	.	.	.	[2d	ter-	2g	.
=11.	=11	=11.	=11	=11.	=11	=11.	=11	=11.	=11	=11.	=11
0r	.	0A	-re,	0r	.	0r	.	2d]	.	2f	ter-
.	.	.	.	.	.	.	.	4c#i	.	4e	.
.	.	.	.	.	.	.	.	4Bni	.	4d	.
.	.	.	.	.	.	.	.	1c#i	.	1e	.
=12.	=12	=12.	=12	=12.	=12	=12.	=12	=12.	=12	=12.	=12
0r	.	2r	.	0r	.	0r	.	1d	-re.	2d	-re,
.	.	2.D	vi-	.	.	.	.	.	.	2.f	.
.	.	.	.	.	.	.	.	1r	.	.	.
.	.	4E	.	.	.	.	.	.	.	4g	.
.	.	2F	.	.	.	.	.	.	.	4a	si-
.	.	.	.	.	.	.	.	.	.	8gL	.
.	.	.	.	.	.	.	.	.	.	8aJ	.
=13	=13	=13	=13	=13	=13	=13	=13	=13	=13	=13	=13
0r	.	2G	-si-	0r	.	0r	.	0d	Pre-	2b-	-bi-
.	.	2F	-bi-	.	.	.	.	.	.	2a	-li-
.	.	2.B-	-li-	.	.	.	.	.	.	1f	-um
.	.	4A	-um	.	.	.	.	.	.	.	.
=14.	=14	=14.	=14	=14.	=14	=14.	=14	=14.	=14	=14.	=14
0r	.	2G	om-	0r	.	0r	.	0d	-ter	2r	.
.	.	2F	-ni-	.	.	.	.	.	.	2.f	om-
.	.	1D	-um,	.	.	.	.	.	.	.	.
.	.	.	.	.	.	.	.	.	.	4g	.
.	.	.	.	.	.	.	.	.	.	4a	.
.	.	.	.	.	.	.	.	.	.	8gL	.
.	.	.	.	.	.	.	.	.	.	8aJ	.
=15.	=15	=15.	=15	=15.	=15	=15.	=15	=15.	=15	=15.	=15
0r	.	2r	.	0r	.	0r	.	0d	re-	2b-	.
.	.	2.D	et	.	.	.	.	.	.	2a	-ni-
.	.	.	.	.	.	.	.	.	.	2f	-um,
.	.	4E	.	.	.	.	.	.	.	.	.
.	.	2F	in-	.	.	.	.	.	.	2a	et
=16	=16	=16	=16	=16	=16	=16	=16	=16	=16	=16	=16
0r	.	2G	-vi-	0r	.	0r	.	1d	-rum	2b-	in-
.	.	2F	-si-	.	.	.	.	.	.	1a	-vi-
.	.	2B-	-bi-	.	.	.	.	1d	se-	.	.
.	.	2B-	-li-	.	.	.	.	.	.	2g	-si-
=17.	=17	=17.	=17	=17.	=17	=17.	=17	=17.	=17	=17.	=17
0r	.	2.A	-um.	0r	.	0r	.	0e	-ri-	2a	-bi-
.	.	.	.	.	.	.	.	.	.	2a	-li-
.	.	4B-	.	.	.	.	.	.	.	.	.
.	.	2c	.	.	.	.	.	.	.	2g	-um.
.	.	2A	Et	.	.	.	.	.	.	2cc	Et
=18.	=18	=18.	=18	=18.	=18	=18.	=18	=18.	=18	=18.	=18
0r	.	2A	in	0r	.	0r	.	[0c	-em,	2cc	in
.	.	4G	.	.	.	.	.	.	.	4b-	.
.	.	4F	.	.	.	.	.	.	.	4a	.
.	.	2c	.	.	.	.	.	.	.	2g	.
.	.	[2F	u-	.	.	.	.	.	.	2a	u-
=19	=19	=19	=19	=19	=19	=19	=19	=19	=19	=19	=19
0r	.	2F]	.	0r	.	0r	.	0c]	.	2a	-num
.	.	4E	.	.	.	.	.	.	.	4g	.
.	.	4D	.	.	.	.	.	.	.	4f	.
.	.	1A	-num	.	.	.	.	.	.	2e	Do-
.	.	.	.	.	.	.	.	.	.	2e	-mi-
=20.	=20	=20.	=20	=20.	=20	=20.	=20	=20.	=20	=20.	=20
0r	.	2r	.	0r	.	0r	.	0f	pa-	1d	-num
.	.	2B-	Do-	.	.	.	.	.	.	.	.
.	.	2A	-mi-	.	.	.	.	.	.	2r	.
.	.	[2F	.	.	.	.	.	.	.	[2a	no-
=21.	=21	=21.	=21	=21.	=21	=21.	=21	=21.	=21	=21.	=21
0r	.	4F]	.	0r	.	0r	.	0f	-rit	4a]	.
.	.	4G	.	.	.	.	.	.	.	4b-	.
.	.	4A	.	.	.	.	.	.	.	2cc	.
.	.	8GL	.	.	.	.	.	.	.	.	.
.	.	8AJ	.	.	.	.	.	.	.	.	.
.	.	2B-	-num	.	.	.	.	.	.	2dd	.
.	.	2A	no-	.	.	.	.	.	.	2cc	.
=22	=22	=22	=22	=22	=22	=22	=22	=22	=22	=22	=22
0r	.	1F	-strum	0r	.	0r	.	1f	De-	2a	-strum
.	.	.	.	.	.	.	.	.	.	2f	Je-
.	.	2r	.	.	.	.	.	1f	-um	2.a	-sum
.	.	2D	Je-	.	.	.	.	.	.	.	.
.	.	.	.	.	.	.	.	.	.	4b-	Chri-
=23.	=23	=23.	=23	=23.	=23	=23.	=23	=23.	=23	=23.	=23
0r	.	1A	-sum	0r	.	0r	.	0e	et	1cc	-stum,
.	.	2G	Chri-	.	.	.	.	.	.	2r	.
.	.	2A	-stum,	.	.	.	.	.	.	[2cc	Fi-
=24.	=24	=24.	=24	=24.	=24	=24.	=24	=24.	=24	=24.	=24
0r	.	1F	Fi-	0r	.	0r	.	0d	ho-	2cc]	.
.	.	.	.	.	.	.	.	.	.	4b-	.
.	.	.	.	.	.	.	.	.	.	4a	.
.	.	2G	-li-	.	.	.	.	.	.	2b-	-li-
.	.	[2F	-um	.	.	.	.	.	.	[2a	-um
=25	=25	=25	=25	=25	=25	=25	=25	=25	=25	=25	=25
0r	.	2F]	.	0r	.	0r	.	0c	-mi-	2a]	.
.	.	4E	.	.	.	.	.	.	.	4g	.
.	.	4D	.	.	.	.	.	.	.	4f	.
.	.	1E	De-	.	.	.	.	.	.	1g	De-
=26.	=26	=26.	=26	=26.	=26	=26.	=26	=26.	=26	=26.	=26
0r	.	1D	-i	0r	.	0r	.	1.d	-nem	2f	-i
.	.	.	.	.	.	.	.	.	.	4d	u-
.	.	.	.	.	.	.	.	.	.	4e	.
.	.	2r	.	.	.	.	.	.	.	4f	.
.	.	.	.	.	.	.	.	.	.	4g	.
.	.	2F	u-	.	.	.	.	2c	u-	2a	.
=27.	=27	=27.	=27	=27.	=27	=27.	=27	=27.	=27	=27.	=27
0r	.	2G	-ni-	0r	.	0r	.	2B-	-ni-	2d	-ni-
.	.	2E	-ge-	.	.	.	.	2G	.	1g	-ge-
.	.	1D	-ni-	.	.	.	.	2A	-ge-	.	.
.	.	.	.	.	.	.	.	2A	-ni-	2f#i	-ni-
=28	=28	=28	=28	=28	=28	=28	=28	=28	=28	=28	=28
1.GG	Et	2GG	-tum.	1.B-	Et	0G	Pre-	2G	-tum.	2g	-tum.
.	.	2G	Et	.	.	.	.	2d	Et	2.b-	Et
.	.	2D	ex	.	.	.	.	2d	ex	.	.
.	.	.	.	.	.	.	.	.	.	4cc	.
2GG	ex	2G	Pa-	2B-	ex	.	.	2d	Pa-	2dd	.
=29.	=29	=29.	=29	=29.	=29	=29.	=29	=29.	=29	=29.	=29
1.C	Pa-	2E-i	-tre	2c	Pa-	0G	-ter	2e-i	-tre	2g	ex
.	.	2C	na-	1c	-tre	.	.	2.g	na-	2ee-i	Pa-
.	.	2G	-tum	.	.	.	.	.	.	2ee-i	-tre
.	.	.	.	.	.	.	.	4f	.	.	.
2BB-	-tre	[2G	an-	2d	na-	.	.	2d	.	2dd	na-
=30.	=30	=30.	=30	=30.	=30	=30.	=30	=30.	=30	=30.	=30
1C	na-	4G]	.	1c	-tum	0G	re-	2e-i	.	2g	-tum
.	.	4F	.	.	.	.	.	.	.	.	.
.	.	2E-i	.	.	.	.	.	2c	.	1cc	an-
1GG	-tum	1D	-te	1r	.	.	.	2d	-tum	.	.
.	.	.	.	.	.	.	.	2d	an-	4b-	.
.	.	.	.	.	.	.	.	.	.	4a	.
=31	=31	=31	=31	=31	=31	=31	=31	=31	=31	=31	=31
2r	.	2r	.	1r	.	0G	-rum	2d	-te	2b-	.
2GG	an-	2D	om-	.	.	.	.	2d	om-	2b-	-te
2.C	-te	2E-i	-ni-	2r	.	.	.	2c	-ni-	1cc	om-
.	.	2C	-a	2c	om-	.	.	[2e-	-a	.	.
4C	om-	.	.	.	.	.	.	.	.	.	.
=32.	=32	=32.	=32	=32.	=32	=32.	=32	=32.	=32	=32.	=32
2C	-ni-	1.G	se-	2c	-ni-	0G	se-	2e-]	.	2g	-ni-
2BB-	-a	.	.	2d	-a	.	.	1d	se-	1b-	.
2E-i	se-	.	.	2B-	se-	.	.	.	.	.	.
2E-i	-cu-	2C	-cu-	2c	-cu-	.	.	2c	-cu-	4a	.
.	.	.	.	.	.	.	.	.	.	4g	.
=33.	=33	=33.	=33	=33.	=33	=33.	=33	=33.	=33	=33.	=33
1D	-la.	1F	-la.	2A	-la.	[0A	-ri-	2d	-la.	1f	-a
.	.	.	.	2d	De-	.	.	2D	De-	.	.
2D	De-	2r	.	1d	-um	.	.	2.F	.	2r	.
[2D	-um	[2F	De-	.	.	.	.	.	.	[2f	De-
.	.	.	.	.	.	.	.	4G	.	.	.
=34	=34	=34	=34	=34	=34	=34	=34	=34	=34	=34	=34
4D]	.	2F]	.	2d	de	1A]	.	4A	.	4f]	.
4C	.	.	.	.	.	.	.	4B-	.	4g	.
2AA	.	2E	-um	2.c	De-	.	.	2c	-um	2a	-um
1BB-	de	2D	de	.	.	[1F	.	1d	de	2d	de
.	.	.	.	4B-	.	.	.	.	.	.	.
.	.	2BB-	.	[2B-	.	.	.	.	.	[2f	De-
=35.	=35	=35.	=35	=35.	=35	=35.	=35	=35.	=35	=35.	=35
1FF	De-	1C	De-	2B-]	.	0F]	.	1c	De-	4f]	.
.	.	.	.	.	.	.	.	.	.	4g	.
.	.	.	.	2A	.	.	.	.	.	2a	.
2BB-	-o,	1D	-o,	2B-	-o,	.	.	2B-	-o,	1d	-o,
2BB-	lu-	.	.	2B-	lu-	.	.	2B-	lu-	.	.
=36.	=36	=36.	=36	=36.	=36	=36.	=36	=36.	=36	=36.	=36
2.BB-	-men	1r	.	2B-	-men	0F	-em,	2.d	-men	1r	.
.	.	.	.	2B-	de	.	.	.	.	.	.
4C	de	.	.	.	.	.	.	4e	de	.	.
2D	lu-	2r	.	2A	lu-	.	.	2f	lu-	2r	.
2D	-mi-	2A	lu-	2A	-mi-	.	.	2f	-mi-	2dd	lu-
=37	=37	=37	=37	=37	=37	=37	=37	=37	=37	=37	=37
[0GG	-ne,	1B-	-men	[0G	-ne,	1r	.	1d	-ne,	1dd	-men
.	.	2B-	de	.	.	[1B-	pa-	2r	.	2dd	de
.	.	[2G	lu-	.	.	.	.	[2g	lu-	[2b-	lu-
=38.	=38	=38.	=38	=38.	=38	=38.	=38	=38.	=38	=38.	=38
1GG]	.	4G]	.	1G]	.	1B-]	.	4g]	.	4b-]	.
.	.	4A	.	.	.	.	.	4f	.	4cc	.
.	.	2B-	.	.	.	.	.	2d	.	2dd	-mi-
1r	.	2.E-	.	1r	.	1B-	-rit	1e-	-mi-	2g	-ne,
.	.	.	.	.	.	.	.	.	.	2g	De-
.	.	4F	.	.	.	.	.	.	.	.	.
=39.	=39	=39.	=39	=39.	=39	=39.	=39	=39.	=39	=39.	=39
2r	.	2G	.	2r	.	0B-	De-	0d	-ne,	2.b-	-um
2GG	De-	2G	-mi-	2.D	De-	.	.	.	.	.	.
.	.	.	.	.	.	.	.	.	.	4cc	.
2BB-	-um	2F	-ne,	.	.	.	.	.	.	2dd	.
.	.	.	.	4E	.	.	.	.	.	.	.
2BB-	ve-	2D	De-	2F	.	.	.	.	.	[2d	ve-
=40	=40	=40	=40	=40	=40	=40	=40	=40	=40	=40	=40
2.BB-	-rum	1D	-um	2G	.	0B-	-um	2r	.	4d]	.
.	.	.	.	.	.	.	.	.	.	4e	.
.	.	.	.	1F	.	.	.	1d	De-	2f	.
4AA	.	.	.	.	.	.	.	.	.	.	.
1GG	.	1BB-	ve-	.	.	.	.	.	.	1g	.
.	.	.	.	2E	.	.	.	2G	-um	.	.
=41.	=41	=41.	=41	=41.	=41	=41.	=41	=41.	=41	=41.	=41
2FF	.	1C	-rum	2F	-um	[0A	et	2.c	ve-	0a	-rum
2FF	de	.	.	2.F	ve-	.	.	.	.	.	.
.	.	.	.	.	.	.	.	4B-	.	.	.
2.FF	De-	1D	.	.	.	.	.	4A	.	.	.
.	.	.	.	4G	.	.	.	4G	.	.	.
.	.	.	.	4A	.	.	.	[2F	.	.	.
4GG	.	.	.	4B-	.	.	.	.	.	.	.
=42.	=42	=42.	=42	=42.	=42	=42.	=42	=42.	=42	=42.	=42
1AA	.	[0C	.	[0c	-rum	0A]	.	2F]	.	2r	.
.	.	.	.	.	.	.	.	2E	.	1a	de
1FF	-o	.	.	.	.	.	.	2F	-rum	.	.
.	.	.	.	.	.	.	.	[2f	de	2f	De-
=43	=43	=43	=43	=43	=43	=43	=43	=43	=43	=43	=43
1C	ve-	1C]	.	1c]	.	[0G	ho-	2f]	.	2.g	.
.	.	.	.	.	.	.	.	2e	De-	.	.
.	.	.	.	.	.	.	.	.	.	4a	.
2BB-	.	2r	.	1r	.	.	.	2d	-o	2b-	-o
2C	.	[2C	de	.	.	.	.	[2e	ve-	[2g	ve-
=44.	=44	=44.	=44	=44.	=44	=44.	=44	=44.	=44	=44.	=44
1GG	-ro.	2C]	.	0r	.	0G]	.	4e]	.	4g]	.
.	.	.	.	.	.	.	.	4d	.	4a	.
.	.	2BB-	De-	.	.	.	.	1d	.	1b-	.
1r	.	1E-i	-o	.	.	.	.	.	.	.	.
.	.	.	.	.	.	.	.	2c	.	4a	.
.	.	.	.	.	.	.	.	.	.	4g	.
=45.	=45	=45.	=45	=45.	=45	=45.	=45	=45.	=45	=45.	=45
0r	.	2.D	ve-	2r	.	0F	-mi-	1d	-ro,	4b-	.
.	.	.	.	.	.	.	.	.	.	4a	.
.	.	.	.	2A	de	.	.	.	.	1dd	.
.	.	4C	.	.	.	.	.	.	.	.	.
.	.	2BB-	.	2B-	De-	.	.	1r	.	.	.
.	.	2AA	.	4c	-o	.	.	.	.	2cc	.
.	.	.	.	4A	.	.	.	.	.	.	.
=46	=46	=46	=46	=46	=46	=46	=46	=46	=46	=46	=46
0r	.	2.GG	.	1.d	ve-	[0G	-nem,	2r	.	2.b-	.
.	.	.	.	.	.	.	.	2.g	ve-	.	.
.	.	4AA	.	.	.	.	.	.	.	4cc	.
.	.	2BB-	.	.	.	.	.	.	.	2dd	.
.	.	.	.	.	.	.	.	4f	.	.	.
.	.	2C	.	2c	.	.	.	2e-i	.	[2g	.
=47.	=47	=47.	=47	=47.	=47	=47.	=47	=47.	=47	=47.	=47
0r	.	2BB-	.	2d	.	0G]	.	2d	.	2g]	.
.	.	2C	.	2e-i	.	.	.	2c	.	1cc	.
.	.	1GG	.	1d	.	.	.	[1g	.	.	.
.	.	.	.	.	.	.	.	.	.	2b-	.
=48.	=48	=48.	=48	=48.	=48	=48.	=48	=48.	=48	=48.	=48
1.C	Ge-	1C	-ro.	1c	-ro.	0r	.	2g]	.	2.cc	.
.	.	.	.	.	.	.	.	2f	.	.	.
.	.	.	.	.	.	.	.	.	.	4b-	.
.	.	1r	.	1c	Ge-	.	.	1e-i	.	2a	.
2C	-ni-	.	.	.	.	.	.	.	.	2g	.
=49	=49	=49	=49	=49	=49	=49	=49	=49	=49	=49	=49
1D	-tum	0r	.	2A	-ni-	1r	.	0d	-ro.	0f	-ro.
.	.	.	.	2B-	-tum,	.	.	.	.	.	.
1D	non	.	.	2.A	non	1F	vir-	.	.	.	.
.	.	.	.	4B-	.	.	.	.	.	.	.
=50.	=50	=50.	=50	=50.	=50	=50.	=50	=50.	=50	=50.	=50
0E	fa-	0r	.	2c	.	0G	-go	1r	.	0r	.
.	.	.	.	1d	fa-	.	.	.	.	.	.
.	.	.	.	.	.	.	.	2r	.	.	.
.	.	.	.	2c#i	.	.	.	2e	Ge-	.	.
=51.	=51	=51.	=51	=51.	=51	=51.	=51	=51.	=51	=51.	=51
0D	-ctum,	2r	.	0d	-ctum,	0A	ma-	2f	-ni-	1r	.
.	.	2F	Ge-	.	.	.	.	2d	-tum,	.	.
.	.	2F	-ni-	.	.	.	.	1f	non	1f	Vir-
.	.	2D	-tum,	.	.	.	.	.	.	.	.
=52	=52	=52	=52	=52	=52	=52	=52	=52	=52	=52	=52
0r	.	4G	non	1r	.	0G	-ter,	4e	.	0g	-go
.	.	4F	.	.	.	.	.	4d	.	.	.
.	.	4E	.	.	.	.	.	2.d	fa-	.	.
.	.	4D	.	.	.	.	.	.	.	.	.
.	.	1E	fa-	2r	.	.	.	.	.	.	.
.	.	.	.	.	.	.	.	4c#i	.	.	.
.	.	.	.	2e	con-	.	.	4c#i	.	.	.
.	.	.	.	.	.	.	.	4Bni	.	.	.
=53.	=53	=53.	=53	=53.	=53	=53.	=53	=53.	=53	=53.	=53
2r	.	0D	-ctum,	2f	-sub-	1r	.	0d	-ctum,	0a	ma-
2F	con-	.	.	2d	-stan-	.	.	.	.	.	.
2F	-sub-	.	.	1f	-ti-	1F	vir-	.	.	.	.
2D	-stan-	.	.	.	.	.	.	.	.	.	.
=54.	=54	=54.	=54	=54.	=54	=54.	=54	=54.	=54	=54.	=54
4G	-ti-	0r	.	2e	-a-	0G	-go	1r	.	0g	-ter,
4F	.	.	.	.	.	.	.	.	.	.	.
4E	.	.	.	1d	-lem	.	.	.	.	.	.
4D	.	.	.	.	.	.	.	.	.	.	.
1E	-a-	.	.	.	.	.	.	2r	.	.	.
.	.	.	.	2c#i	Pa-	.	.	2e	con-	.	.
=55	=55	=55	=55	=55	=55	=55	=55	=55	=55	=55	=55
0D	-lem,	2r	.	0d	-tri:	0A	ma-	2f	-sub-	1r	.
.	.	2F	con-	.	.	.	.	2d	-stan-	.	.
.	.	2F	-sub-	.	.	.	.	1f	-ti-	1f	vir-
.	.	2D	-stan-	.	.	.	.	.	.	.	.
=56.	=56	=56.	=56	=56.	=56	=56.	=56	=56.	=56	=56.	=56
2r	.	4G	-ti-	0r	.	0G	-ter,	4e	-a-	0g	-go
.	.	4F	.	.	.	.	.	4d	-lem	.	.
2G	con-	4E	.	.	.	.	.	2.d	Pa-	.	.
.	.	4D	.	.	.	.	.	.	.	.	.
2G	-sub-	2E	-a-	.	.	.	.	.	.	.	.
.	.	.	.	.	.	.	.	4c#i	.	.	.
[2G	-stan-	2E	-lem	.	.	.	.	4c#i	.	.	.
.	.	.	.	.	.	.	.	4Bni	.	.	.
=57.	=57	=57.	=57	=57.	=57	=57.	=57	=57.	=57	=57.	=57
2G]	.	0D	Pa-	1r	.	2r	.	0d	-tri:	0a	ma-
4F	.	.	.	.	.	2.d	vir-	.	.	.	.
4E	.	.	.	.	.	.	.	.	.	.	.
2F	.	.	.	2r	.	.	.	.	.	.	.
.	.	.	.	.	.	4c	.	.	.	.	.
2F	-ti-	.	.	2d	per	2A	.	.	.	.	.
=58	=58	=58	=58	=58	=58	=58	=58	=58	=58	=58	=58
2G	-a-	0GG	-tri:	2d	quem	2B-	.	2r	.	1g	-ter,
2D	-lem	.	.	1d	om-	2G	-go	2g	per	.	.
1G	Pa-	.	.	.	.	1B-	ma-	2g	quem	1r	.
.	.	.	.	4c	.	.	.	[2g	om-	.	.
.	.	.	.	4B-	.	.	.	.	.	.	.
=59.	=59	=59.	=59	=59.	=59	=59.	=59	=59.	=59	=59.	=59
1E	.	1r	.	2c	.	1G	.	2g]	.	1r	.
.	.	.	.	2c	-ni-	.	.	4f	.	.	.
.	.	.	.	.	.	.	.	4e	.	.	.
1D	.	2r	.	2.d	-a,	1A	.	2f	.	2r	.
.	.	2D	per	.	.	.	.	2f	-ni-	2d	vir-
.	.	.	.	4c	.	.	.	.	.	.	.
=60.	=60	=60.	=60	=60.	=60	=60.	=60	=60.	=60	=60.	=60
1GG	-tri:	2G	quem	2.B-	.	1G	.	0g	-a,	2d	-go
.	.	2D	om-	.	.	.	.	.	.	1d	ma-
.	.	.	.	4A	.	.	.	.	.	.	.
2r	.	1E	-ni-	1G	.	1r	.	.	.	.	.
2G	per	.	.	.	.	.	.	.	.	4c	.
.	.	.	.	.	.	.	.	.	.	4B-	.
=61	=61	=61	=61	=61	=61	=61	=61	=61	=61	=61	=61
2G	quem	1E	-a	2r	.	0r	.	0r	.	1c	.
1G	om-	.	.	2G	per	.	.	.	.	.	.
.	.	[1D	fa-	[1A	quem	.	.	.	.	[1d	.
4F	.	.	.	.	.	.	.	.	.	.	.
4E	.	.	.	.	.	.	.	.	.	.	.
=62.	=62	=62.	=62	=62.	=62	=62.	=62	=62.	=62	=62.	=62
2F	.	1D]	.	2A]	.	0r	.	1r	.	2d]	.
2F	-ni-	.	.	2B-	om-	.	.	.	.	1f	.
[1G	-a,	[1C	-cta	1c	-ni-	.	.	2r	.	.	.
.	.	.	.	.	.	.	.	2g	per	4e	.
.	.	.	.	.	.	.	.	.	.	4d	.
=63.	=63	=63.	=63	=63.	=63	=63.	=63	=63.	=63	=63.	=63
1G]	.	1C]	.	1c	-a	1r	.	2g	quem	1e	.
.	.	.	.	.	.	.	.	1g	om-	.	.
1G	.	[1D	sunt,	2B-	fa-	2r	.	.	.	2d	-ter,
.	.	.	.	4A	.	[2d	-per	4f	.	2dd	per
.	.	.	.	4G	.	.	.	4e	.	.	.
=64	=64	=64	=64	=64	=64	=64	=64	=64	=64	=64	=64
1D	per	1D]	.	2A	.	2d]	.	2f	.	2dd	quem
.	.	.	.	2A	-cta	2d	quem	2f	-ni-	1dd	om-
1GG	quem	2r	.	1G	sunt,	2d	om-	1g	-a	.	.
.	.	2D	fa-	.	.	2d	-ni-	.	.	4cc	.
.	.	.	.	.	.	.	.	.	.	4b-	.
=65.	=65	=65.	=65	=65.	=65	=65.	=65	=65.	=65	=65.	=65
1C	om-	1E	.	1G	fa-	1c	-a	2e	fa-	2cc	.
.	.	.	.	.	.	.	.	2e	-cta	2cc	-ni-
2BB-	-ni-	2F	.	2.B-	.	2r	.	1d	sunt.	2dd	-a
2GG	-a	2G	.	.	.	[2d	fa-	.	.	[2b-	fa-
.	.	.	.	4c	.	.	.	.	.	.	.
=66.	=66	=66.	=66	=66.	=66	=66.	=66	=66.	=66	=66.	=66
2BB-	fa-	2F	.	2d	.	2d]	.	0r	.	2b-]	.
2C	.	2E-	.	2e-i	.	4c	.	.	.	4a	.
.	.	.	.	.	.	4B-	.	.	.	4g	.
1D	-cta	1F	.	1d	-cta	2A	.	.	.	4f	-cta
.	.	.	.	.	.	.	.	.	.	4g	.
.	.	.	.	.	.	2A	-cta	.	.	4a	.
.	.	.	.	.	.	.	.	.	.	4f	.
=67	=67	=67	=67	=67	=67	=67	=67	=67	=67	=67	=67
[0GG	sunt.	2D	.	1B-	sunt.	[0G	sunt.	1G	Qui	[0g	sunt.
.	.	2.G	.	.	.	.	.	.	.	.	.
.	.	.	.	1r	.	.	.	2G	pro-	.	.
.	.	4F	.	.	.	.	.	.	.	.	.
.	.	2E-i	.	.	.	.	.	[2c	-pter	.	.
=68.	=68	=68.	=68	=68.	=68	=68.	=68	=68.	=68	=68.	=68
1GG]	.	1D	-cta	1G	Qui	0G_	.	2c]	.	0g_	.
.	.	.	.	.	.	.	.	2B-	nos	.	.
1r	.	1C	sunt.	2G	pro-	.	.	2c	ho-	.	.
.	.	.	.	[2c	-pter	.	.	2e-	-mi-	.	.
=69.	=69	=69.	=69	=69.	=69	=69.	=69	=69.	=69	=69.	=69
0r	.	2r	.	2c]	.	0G]	.	1d	-nes,	0g]	.
.	.	2G	Qui	2c	.	.	.	.	.	.	.
.	.	2C	pro-	2c	ho-	.	.	2r	.	.	.
.	.	2C	-pter	2e-	.	.	.	2c	nos	.	.
=70	=70	=70	=70	=70	=70	=70	=70	=70	=70	=70	=70
0r	.	1G	nos	2.d	.	0r	.	2.B-	ho-	1r	.
.	.	.	.	4c	.	.	.	4A	.	.	.
.	.	1r	.	2B-	.	.	.	2G	.	1d	Qui
.	.	.	.	2A	-mi-	.	.	2F	.	.	.
=71.	=71	=71.	=71	=71.	=71	=71.	=71	=71.	=71	=71.	=71
0r	.	0r	.	1G	-nes,	0r	.	1B-	.	2d	pro-
.	.	.	.	.	.	.	.	.	.	1g	-pter
.	.	.	.	2r	.	.	.	1A	-mi-	.	.
.	.	.	.	2c	nos	.	.	.	.	2f	nos
=72.	=72	=72.	=72	=72.	=72	=72.	=72	=72.	=72	=72.	=72
0r	.	0r	.	2B-	.	1r	.	2G	-nes,	2g	ho-
.	.	.	.	2G	.	.	.	1g	nos	2b-	.
.	.	.	.	[1d	ho-	1D	Qui	.	.	1a	.
.	.	.	.	.	.	.	.	2f	.	.	.
=73	=73	=73	=73	=73	=73	=73	=73	=73	=73	=73	=73
0r	.	0r	.	2d]	.	2D	pro-	1.d	ho-	2f	.
.	.	.	.	2B-	.	1G	-pter	.	.	1b-	.
.	.	.	.	2B-	-mi-	.	.	.	.	.	.
.	.	.	.	[2c	.	2F	nos	2f	.	[2a	.
=74.	=74	=74.	=74	=74.	=74	=74.	=74	=74.	=74	=74.	=74
0r	.	0r	.	4c]	.	2G	ho-	2e	.	2a]	.
.	.	.	.	4A	.	.	.	.	.	.	.
.	.	.	.	1d	.	2B-	.	2d	.	2g	-mi-
.	.	.	.	.	.	[1A	.	1e	.	[1a	-nes
.	.	.	.	2c#i	.	.	.	.	.	.	.
=75.	=75	=75.	=75	=75.	=75	=75.	=75	=75.	=75	=75.	=75
0r	.	1D	et	0d	.	2A]	.	1.f	.	1a]	.
.	.	.	.	.	.	2F	.	.	.	.	.
.	.	2D	pro-	.	.	1B-	.	.	.	1r	.
.	.	[2G	-pter	.	.	.	.	2d	-mi-	.	.
=76	=76	=76	=76	=76	=76	=76	=76	=76	=76	=76	=76
1r	.	2G]	.	1D	-nes,	1A	-mi-	0d	.	1r	.
.	.	2F	no-	.	.	.	.	.	.	.	.
1GG	et	2G	-stram	1r	.	[1G	-nes	.	.	1r	.
.	.	[2B-	sa-	.	.	.	.	.	.	.	.
=77.	=77	=77.	=77	=77.	=77	=77.	=77	=77.	=77	=77.	=77
2GG	pro-	4B-]	.	1r	.	0G_	.	1r	.	1r	.
.	.	4A	.	.	.	.	.	.	.	.	.
1C	.	4G	.	.	.	.	.	.	.	.	.
.	.	4F	.	.	.	.	.	.	.	.	.
.	.	2E-i	.	1G	et	.	.	1g	-et	1r	.
2BB-	-pter	2D	.	.	.	.	.	.	.	.	.
=78.	=78	=78.	=78	=78.	=78	=78.	=78	=78.	=78	=78.	=78
2C	no-	2E-i	.	2G	pro-	1G]	.	2g	pro-	1r	.
2E-i	-stram	2C	.	1c	-pter	.	.	2g	-pter	.	.
1D	sa-	1F	-lu-	.	.	1r	.	1f	no-	1r	.
.	.	.	.	2B-	no-	.	.	.	.	.	.
=79	=79	=79	=79	=79	=79	=79	=79	=79	=79	=79	=79
1C	-lu-	[0G	-tem	2c	-stram	0r	.	2e-i	-stram	1g	et
.	.	.	.	2e-i	sa-	.	.	2c	sa-	.	.
2BB-	.	.	.	2d	-lu-	.	.	2d	-lu-	2g	pro-
2C	.	.	.	2c	.	.	.	4e-i	.	[2cc	-pter
.	.	.	.	.	.	.	.	4f	.	.	.
=80.	=80	=80.	=80	=80.	=80	=80.	=80	=80.	=80	=80.	=80
1GG	.	0G]	.	1d	.	0r	.	1g	.	2cc]	.
.	.	.	.	.	.	.	.	.	.	2b-	no-
1C	-tem	.	.	[1c	.	.	.	2e-i	.	2cc	-stram
.	.	.	.	.	.	.	.	2c	.	[2ee-i	sa-
=81.	=81	=81.	=81	=81.	=81	=81.	=81	=81.	=81	=81.	=81
0r	.	0r	.	2c]	.	2r	.	1g	.	2ee-]	.
.	.	.	.	1B-	.	1G	sa-	.	.	4dd	.
.	.	.	.	.	.	.	.	.	.	4cc	.
.	.	.	.	.	.	.	.	2d	.	2dd	.
.	.	.	.	2A	.	2A	.	[2f	.	[2cc	-lu-
=82	=82	=82	=82	=82	=82	=82	=82	=82	=82	=82	=82
0r	.	0r	.	1G	.	1B-	-lu-	2f]	.	4cc]	.
.	.	.	.	.	.	.	.	.	.	4b-	.
.	.	.	.	.	.	.	.	2e	.	1b-	.
.	.	.	.	1F	-tem	1c	.	1f	.	.	.
.	.	.	.	.	.	.	.	.	.	2a	.
=83.	=83	=83.	=83	=83.	=83	=83.	=83	=83.	=83	=83.	=83
1GG	de-	1G	de-	0B-	de-	1B-	-tem	0d	-tem	0b-	-tem
2GG	-scen-	2G	-scen-	.	.	1r	.	.	.	.	.
2GG	-dit	[2G	-dit	.	.	.	.	.	.	.	.
=84.	=84	=84.	=84	=84.	=84	=84.	=84	=84.	=84	=84.	=84
1.D	de	2G]	.	0B-	-scen-	0r	.	0r	.	1r	.
.	.	4F	.	.	.	.	.	.	.	.	.
.	.	4E	.	.	.	.	.	.	.	.	.
.	.	2F	.	.	.	.	.	.	.	1r	.
4C	.	2F	de	.	.	.	.	.	.	.	.
4BB-	.	.	.	.	.	.	.	.	.	.	.
=85	=85	=85	=85	=85	=85	=85	=85	=85	=85	=85	=85
2E-i	ce-	2G	ce-	1B-	-dit	0r	.	0r	.	1r	.
1D	.	1F	.	.	.	.	.	.	.	.	.
.	.	.	.	1A	de	.	.	.	.	1r	.
2C	.	2E-i	.	.	.	.	.	.	.	.	.
=86.	=86	=86.	=86	=86.	=86	=86.	=86	=86.	=86	=86.	=86
2BB-	.	2D	.	1G	ce-	0r	.	0r	.	0r	.
2C	.	2E-i	.	.	.	.	.	.	.	.	.
1AA	.	1C	.	1F#i	.	.	.	.	.	.	.
=87.	=87	=87.	=87	=87.	=87	=87.	=87	=87.	=87	=87.	=87
0GG	-lis,	0D	-lis,	1G	-lis,	1G	de-	1g	de-	0b-	de-
.	.	.	.	1r	.	2G	-scen-	2g	-scen-	.	.
.	.	.	.	.	.	2G	-dit	[2g	-dit	.	.
=88	=88	=88	=88	=88	=88	=88	=88	=88	=88	=88	=88
0r	.	0r	.	0r	.	1.d	de	2g]	.	0b-	-scen-
.	.	.	.	.	.	.	.	4f	.	.	.
.	.	.	.	.	.	.	.	4e	.	.	.
.	.	.	.	.	.	.	.	2f	.	.	.
.	.	.	.	.	.	4c	.	2f	de	.	.
.	.	.	.	.	.	4B-	.	.	.	.	.
=89.	=89	=89.	=89	=89.	=89	=89.	=89	=89.	=89	=89.	=89
0r	.	1r	.	0r	.	2e-	ce-	2g	.	1b-	-dit
.	.	.	.	.	.	1d	.	1.f	ce-	.	.
.	.	2r	.	.	.	.	.	.	.	1a	de
.	.	2F	de	.	.	2c	.	.	.	.	.
=90.	=90	=90.	=90	=90.	=90	=90.	=90	=90.	=90	=90.	=90
0r	.	2G	ce-	1r	.	2B-	.	2d	.	1g	ce-
.	.	2C	.	.	.	2c	.	2e	.	.	.
.	.	[1D	.	1A	de-	1A	.	1d	-lis,	1f#i	.
=91	=91	=91	=91	=91	=91	=91	=91	=91	=91	=91	=91
1GG	de-	2D]	.	2B-	-scen-	[0Gl	-lis.	2r	.	[0gl	-lis.
.	.	2GG	.	1d	-dit	.	.	1g	de	.	.
1BB-	-scen-	1D	-lis,	.	.	.	.	.	.	.	.
.	.	.	.	2d	de	.	.	2f	.	.	.
=92.	=92	=92.	=92	=92.	=92	=92.	=92	=92.	=92	=92.	=92
2C	-dit	2r	.	2c	ce-	0G_	.	2e	.	0g_	.
2BB-	de	2D	de	2d	.	.	.	1d	ce-	.	.
1C	ce-	1E-i	ce-	2.G	.	.	.	.	.	.	.
.	.	.	.	.	.	.	.	2c	.	.	.
.	.	.	.	4A	.	.	.	.	.	.	.
=93.	=93	=93.	=93	=93.	=93	=93.	=93	=93.	=93	=93.	=93
0GG	.	2D	.	0B-	.	0G_	.	[0dl	-lis.	0g_	.
.	.	2G	-de	.	.	.	.	.	.	.	.
.	.	1G	ce-	.	.	.	.	.	.	.	.
=94	=94	=94	=94	=94	=94	=94	=94	=94	=94	=94	=94
0GGl	-lis.	0Dl	-lis.	0B-l	-lis.	0G]	.	0d]	.	0g]	.
!!LO:LB:i:g=z
=95||	=95||	=95||	=95||	=95||	=95||	=95||	=95||	=95||	=95||	=95||	=95||
*>B	*>B	*>B	*>B	*>B	*>B	*>B	*>B	*>B	*>B	*>B	*>B
*clefF4	*	*clefF4	*	*clefGv2	*	*clefGv2	*	*clefGv2	*	*clefG2	*
*M2/1	*	*M2/1	*	*M2/1	*	*M2/1	*	*M2/1	*	*M2/1	*
*met(C|)	*	*met(C|)	*	*met(C|)	*	*met(C|)	*	*met(C|)	*	*met(C|)	*
*k[b-]	*	*k[b-]	*	*k[b-]	*	*k[b-]	*	*k[b-]	*	*k[b-]	*
!!section: Et incarnatus est
!!!OMD: Et incarnatus est
0r	.	0G	Et	0r	.	0B-	Et	0d	Et	0g	Et
=96	=96	=96	=96	=96	=96	=96	=96	=96	=96	=96	=96
0r	.	1D	in-	0r	.	1A	in-	1d	in-	1f	in-
.	.	1G	-car-	.	.	1B-	-car-	1d	-car-	1g	-car-
=97	=97	=97	=97	=97	=97	=97	=97	=97	=97	=97	=97
0r	.	1.C	-na-	0r	.	1.c	-na-	1.e	-na-	1.g	-na-
.	.	2C	-tus	.	.	2c	-tus	2e	-tus	2g	-tus
=98	=98	=98	=98	=98	=98	=98	=98	=98	=98	=98	=98
0r	.	1C	est	0r	.	1c	est	1e	est	1g	est
.	.	1F	de	.	.	1c	de	2r	.	2r	.
.	.	.	.	.	.	.	.	2f	de	2a	de
=99	=99	=99	=99	=99	=99	=99	=99	=99	=99	=99	=99
0r	.	2.BB-	Spi-	0r	.	1.d	Spi-	1.f	Spi-	1.b-	Spi-
.	.	4C	.	.	.	.	.	.	.	.	.
.	.	4D	.	.	.	.	.	.	.	.	.
.	.	4E	.	.	.	.	.	.	.	.	.
.	.	2F	.	.	.	2c	-ri-	2f	-ri-	2a	.
=100	=100	=100	=100	=100	=100	=100	=100	=100	=100	=100	=100
0r	.	2G	.	0r	.	2B-	.	2e-i	-tu	2g	.
.	.	2D	.	.	.	2A	.	1d	San-	2f	.
.	.	1E-i	-ri-	.	.	1G	.	.	.	1g	-ri-
.	.	.	.	.	.	.	.	2c	.	.	.
=101	=101	=101	=101	=101	=101	=101	=101	=101	=101	=101	=101
0r	.	2D	-tu	0r	.	2A	-tu	[0d	-cto	2f	-tu
.	.	1G	San-	.	.	2B-	San-	.	.	2.b-	San-
.	.	.	.	.	.	2G	.	.	.	.	.
.	.	.	.	.	.	.	.	.	.	4a	.
.	.	2F	.	.	.	2A	.	.	.	[2a	.
=102	=102	=102	=102	=102	=102	=102	=102	=102	=102	=102	=102
1GG	ex	1G	-cto	1D	ex	1B-	.	0d]	.	2a]	.
.	.	.	.	.	.	.	.	.	.	2g	.
1D	Ma-	2r	.	1F	Ma-	[1A	-cto.	.	.	1a	-cto
.	.	2D	ex	.	.	.	.	.	.	.	.
=103	=103	=103	=103	=103	=103	=103	=103	=103	=103	=103	=103
2C	-ri-	2E	Ma-	2E	-ri-	0A]	.	2r	.	0a	ex
2.D	.	2.F	-ri-	2D	-a	.	.	2.d	ex	.	.
.	.	.	.	1F	Vir-	.	.	.	.	.	.
4C	.	4E	.	.	.	.	.	4e	.	.	.
2AA	.	2C	.	.	.	.	.	[2f	.	.	.
=104	=104	=104	=104	=104	=104	=104	=104	=104	=104	=104	=104
2BB-	.	2D	.	1G	-gi-	1r	.	2f]	.	1g	Ma-
2C	.	2E	.	.	.	.	.	2e	Ma-	.	.
[1FF	.	2C	-a	[1F	-ne,	[1A	o-	2.f	-ri-	[1a	-ri-
.	.	2C	Vir-	.	.	.	.	.	.	.	.
.	.	.	.	.	.	.	.	4e	.	.	.
=105	=105	=105	=105	=105	=105	=105	=105	=105	=105	=105	=105
1FF]	.	2D	.	1F]	.	1A]	.	2d	.	1a]	.
.	.	1F	.	.	.	.	.	2c	.	.	.
1GG	-a	.	.	1r	.	1G	-pus	1B-	-a,	1b-	-a
.	.	2E	-gi-	.	.	.	.	.	.	.	.
=106	=106	=106	=106	=106	=106	=106	=106	=106	=106	=106	=106
0D	Vir-	1F	-ne,	2r	.	0A	il-	2r	.	1.a	Vir-
.	.	.	.	1F	Vir-	.	.	1d	ex	.	.
.	.	2r	.	.	.	.	.	.	.	.	.
.	.	2F	Vir-	2D	.	.	.	2d	Ma-	2f	.
=107	=107	=107	=107	=107	=107	=107	=107	=107	=107	=107	=107
1GG	-gi-	2.D	-gi-	1G	-gi-	1B-	-lud	1d	-ri-	1g	-gi-
.	.	4E	.	.	.	.	.	.	.	.	.
1D	-ne:	[1F	-ne:	2D	-ne,	[1A	ce-	1d	-a	1f	-ne:
.	.	.	.	[2A	Vir-	.	.	.	.	.	.
=108	=108	=108	=108	=108	=108	=108	=108	=108	=108	=108	=108
0r	.	1F]	.	4A]	.	2A]	.	2c	Vir-	1a	Et
.	.	.	.	4B-	.	.	.	.	.	.	.
.	.	.	.	2c	.	2F	.	1f	-gi-	.	.
.	.	1r	.	2.B-	.	1G	-li-	.	.	[1b-	ho-
.	.	.	.	.	.	.	.	2e	.	.	.
.	.	.	.	4c	.	.	.	.	.	.	.
=109	=109	=109	=109	=109	=109	=109	=109	=109	=109	=109	=109
0BB-	et	2r	.	1d	.	0F	-tus	0f	-ne:	1b-]	.
.	.	2D	et	.	.	.	.	.	.	.	.
.	.	4D	ho-	1d	-gi-	.	.	.	.	1b-	-mo
.	.	4E	.	.	.	.	.	.	.	.	.
.	.	4F	.	.	.	.	.	.	.	.	.
.	.	4G	.	.	.	.	.	.	.	.	.
=110	=110	=110	=110	=110	=110	=110	=110	=110	=110	=110	=110
1FF	ho-	1.A	.	0c	-ne:	0F	no-	1f	Et	1a	.
1FF	-mo	.	.	.	.	.	.	2f	ho-	[1cc	fa-
.	.	2A	-mo	.	.	.	.	[2f	.	.	.
=111	=111	=111	=111	=111	=111	=111	=111	=111	=111	=111	=111
1C	fa-	1G	fa-	0c	et	[0G	-vit	2f]	.	1cc]	.
.	.	.	.	.	.	.	.	4e	.	.	.
.	.	.	.	.	.	.	.	4d	.	.	.
1C	-ctus	1E	-ctus	.	.	.	.	2e	.	1g	-ctus
.	.	.	.	.	.	.	.	2c	.	.	.
=112	=112	=112	=112	=112	=112	=112	=112	=112	=112	=112	=112
1GG	est,	1D	est,	0d	ho-	0G]	.	0g	-mo	1.b-	est,
2r	.	2r	.	.	.	.	.	.	.	.	.
2GG	et	2D	et	.	.	.	.	.	.	4a	.
.	.	.	.	.	.	.	.	.	.	4g	.
=113	=113	=113	=113	=113	=113	=113	=113	=113	=113	=113	=113
0D	ho-	2F	ho-	0d	-mo	[0A	pa-	2r	.	2f	.
.	.	2D	-mo	.	.	.	.	1f	fa-	2a	et
.	.	2F	fa-	.	.	.	.	.	.	2.a	ho-
.	.	2F	-ctus	.	.	.	.	4e	.	.	.
.	.	.	.	.	.	.	.	4d	.	4b-	.
=114	=114	=114	=114	=114	=114	=114	=114	=114	=114	=114	=114
0AA	-mo	1E	est,	0en	fa-	0A]	.	0c	.	1cc	.
.	.	2r	.	.	.	.	.	.	.	2cc	-mo
.	.	2E	et	.	.	.	.	.	.	[2cc	fa-
=115	=115	=115	=115	=115	=115	=115	=115	=115	=115	=115	=115
1C	fa-	1E	ho-	0eni	-ctus	[0Gl	-ter.	0c	-ctus	2cc]	.
.	.	.	.	.	.	.	.	.	.	4b-	.
.	.	.	.	.	.	.	.	.	.	4a	.
1C	-ctus	1C	-mo	.	.	.	.	.	.	2.g	.
.	.	.	.	.	.	.	.	.	.	4a	.
=116	=116	=116	=116	=116	=116	=116	=116	=116	=116	=116	=116
[0GGl	est.	1.D	fa-	[0dl	est.	0G_	.	[0B-l	est.	1.b-	.
.	.	2D	-ctus	.	.	.	.	.	.	2g	-ctus
=117	=117	=117	=117	=117	=117	=117	=117	=117	=117	=117	=117
0GG]	.	0Dl	est.	0d]	.	0G]	.	0B-]	.	0gl	est.
!!LO:LB:i:g=z
=118||	=118||	=118||	=118||	=118||	=118||	=118||	=118||	=118||	=118||	=118||	=118||
*>C	*>C	*>C	*>C	*>C	*>C	*>C	*>C	*>C	*>C	*>C	*>C
*clefF4	*	*clefF4	*	*clefGv2	*	*clefGv2	*	*clefGv2	*	*clefG2	*
*k[b-]	*	*k[b-]	*	*k[b-]	*	*k[b-]	*	*k[b-]	*	*k[b-]	*
*M2/1	*	*M2/1	*	*M2/1	*	*M2/1	*	*M2/1	*	*M2/1	*
*met(C|)	*	*met(C|)	*	*met(C|)	*	*met(C|)	*	*met(C|)	*	*met(C|)	*
!!section: Crucifixus
!!!OMD: Crucifixus
0r	.	0r	.	0r	.	0r	.	0r	.	0d	Cru-
.	.	.	.	.	.	.	.	.	.	.	.
=119	=119	=119	=119	=119	=119	=119	=119	=119	=119	=119	=119
0r	.	0r	.	0r	.	0r	.	1r	.	1d	-ci-
.	.	.	.	.	.	.	.	[1D	Cru-	[1a	-fi-
=120	=120	=120	=120	=120	=120	=120	=120	=120	=120	=120	=120
0r	.	0r	.	0r	.	0r	.	1D]	.	2a]	.
.	.	.	.	.	.	.	.	.	.	4g	.
.	.	.	.	.	.	.	.	.	.	4f	.
.	.	.	.	.	.	.	.	1D	-ci-	2b-	.
.	.	.	.	.	.	.	.	.	.	[2a	.
=121	=121	=121	=121	=121	=121	=121	=121	=121	=121	=121	=121
0r	.	0r	.	0r	.	0r	.	1.A	-fi-	2a]	.
.	.	.	.	.	.	.	.	.	.	4g	.
.	.	.	.	.	.	.	.	.	.	4f	.
.	.	.	.	.	.	.	.	.	.	1e	.
.	.	.	.	.	.	.	.	4G	.	.	.
.	.	.	.	.	.	.	.	4F	.	.	.
=122	=122	=122	=122	=122	=122	=122	=122	=122	=122	=122	=122
0r	.	0r	.	0r	.	0r	.	2B-	.	2d	.
.	.	.	.	.	.	.	.	1A	.	1f	.
.	.	.	.	.	.	.	.	.	.	.	.
.	.	.	.	.	.	.	.	4G	.	4e	.
.	.	.	.	.	.	.	.	4F	.	4d	.
=123	=123	=123	=123	=123	=123	=123	=123	=123	=123	=123	=123
0r	.	0r	.	0r	.	0r	.	2E	-xus	1c	.
.	.	.	.	.	.	.	.	2A	e-	.	.
.	.	.	.	.	.	.	.	2B-	-ti-	1d	-xus
.	.	.	.	.	.	.	.	[2G	.	.	.
=124	=124	=124	=124	=124	=124	=124	=124	=124	=124	=124	=124
0r	.	0r	.	0r	.	0r	.	4G]	.	2r	.
.	.	.	.	.	.	.	.	4A	.	.	.
.	.	.	.	.	.	.	.	4B-	.	1d	e-
.	.	.	.	.	.	.	.	4c	.	.	.
.	.	.	.	.	.	.	.	4d	.	.	.
.	.	.	.	.	.	.	.	4e	.	.	.
.	.	.	.	.	.	.	.	[2f	.	2d	-ti-
=125	=125	=125	=125	=125	=125	=125	=125	=125	=125	=125	=125
0r	.	0r	.	0r	.	0r	.	2f]	.	1.a	-am
.	.	.	.	.	.	.	.	4e	.	.	.
.	.	.	.	.	.	.	.	4d	.	.	.
.	.	.	.	.	.	.	.	2c	-am	.	.
.	.	.	.	.	.	.	.	2c	pro	4g	.
.	.	.	.	.	.	.	.	.	.	4f	.
=126	=126	=126	=126	=126	=126	=126	=126	=126	=126	=126	=126
0r	.	0r	.	0r	.	0r	.	1d	no-	2b-	.
.	.	.	.	.	.	.	.	.	.	1a	pro
.	.	.	.	.	.	.	.	2c	.	.	.
.	.	.	.	.	.	.	.	[2B-	.	[2g	no-
=127	=127	=127	=127	=127	=127	=127	=127	=127	=127	=127	=127
0r	.	0r	.	0r	.	0r	.	4B-]	.	4g]	.
.	.	.	.	.	.	.	.	4A	.	4f	.
.	.	.	.	.	.	.	.	1d	.	4f	.
.	.	.	.	.	.	.	.	.	.	8eL	.
.	.	.	.	.	.	.	.	.	.	8dJ	.
.	.	.	.	.	.	.	.	.	.	1e	.
.	.	.	.	.	.	.	.	2c#i	.	.	.
=128	=128	=128	=128	=128	=128	=128	=128	=128	=128	=128	=128
0r	.	0r	.	0r	.	0r	.	0d	-bis:	2d	-bis:
.	.	.	.	.	.	.	.	.	.	2a	sub
.	.	.	.	.	.	.	.	.	.	2.b-	Pon-
.	.	.	.	.	.	.	.	.	.	4g	.
=129	=129	=129	=129	=129	=129	=129	=129	=129	=129	=129	=129
0r	.	0r	.	0r	.	0r	.	2r	.	2b-	.
.	.	.	.	.	.	.	.	2A	sub	2a	-ti-
.	.	.	.	.	.	.	.	2.B-	Pon-	2f	-o
.	.	.	.	.	.	.	.	.	.	[2g	Pi-
.	.	.	.	.	.	.	.	4G	.	.	.
=130	=130	=130	=130	=130	=130	=130	=130	=130	=130	=130	=130
0r	.	0r	.	0r	.	0r	.	2B-	.	2g]	.
.	.	.	.	.	.	.	.	2A	-ti-	2.a	-la-
.	.	.	.	.	.	.	.	2F	-o	.	.
.	.	.	.	.	.	.	.	.	.	4d	.
.	.	.	.	.	.	.	.	2G	Pi-	[2g	.
=131	=131	=131	=131	=131	=131	=131	=131	=131	=131	=131	=131
0r	.	0r	.	0r	.	0r	.	1A	-la-	2g]	.
.	.	.	.	.	.	.	.	.	.	2f#i	.
.	.	.	.	.	.	.	.	4G	.	1g	-to
.	.	.	.	.	.	.	.	4A	.	.	.
.	.	.	.	.	.	.	.	4B-	.	.	.
.	.	.	.	.	.	.	.	4c	.	.	.
=132	=132	=132	=132	=132	=132	=132	=132	=132	=132	=132	=132
0r	.	0r	.	0r	.	0r	.	2B-	.	1r	.
.	.	.	.	.	.	.	.	4G	.	.	.
.	.	.	.	.	.	.	.	4A	.	.	.
.	.	.	.	.	.	.	.	4B-	.	1d	pas-
.	.	.	.	.	.	.	.	4c	.	.	.
.	.	.	.	.	.	.	.	[2d	.	.	.
=133	=133	=133	=133	=133	=133	=133	=133	=133	=133	=133	=133
0r	.	0r	.	0r	.	0r	.	2d]	.	1a	-sus,
.	.	.	.	.	.	.	.	4c	.	.	.
.	.	.	.	.	.	.	.	4B-	.	.	.
.	.	.	.	.	.	.	.	2A	.	1r	.
.	.	.	.	.	.	.	.	[2B-	.	.	.
=134	=134	=134	=134	=134	=134	=134	=134	=134	=134	=134	=134
0r	.	0r	.	0r	.	0r	.	2B-]	.	1d	pas-
.	.	.	.	.	.	.	.	4A	.	.	.
.	.	.	.	.	.	.	.	4G	.	.	.
.	.	.	.	.	.	.	.	1F	-to	2.a	-sus,
.	.	.	.	.	.	.	.	.	.	4b-	.
=135	=135	=135	=135	=135	=135	=135	=135	=135	=135	=135	=135
0r	.	0r	.	0r	.	0r	.	1r	.	2cc	.
.	.	.	.	.	.	.	.	.	.	2b-	et
.	.	.	.	.	.	.	.	1G	pas-	2.g	se-
.	.	.	.	.	.	.	.	.	.	4a	.
=136	=136	=136	=136	=136	=136	=136	=136	=136	=136	=136	=136
0r	.	0r	.	0r	.	0r	.	1d	-sus,	2b-	.
.	.	.	.	.	.	.	.	.	.	2a	.
.	.	.	.	.	.	.	.	1r	.	2f	.
.	.	.	.	.	.	.	.	.	.	2a	.
=137	=137	=137	=137	=137	=137	=137	=137	=137	=137	=137	=137
0r	.	0r	.	0r	.	0r	.	1G	pas-	1g	.
.	.	.	.	.	.	.	.	2.d	-sus,	2.f	.
.	.	.	.	.	.	.	.	4e	.	4e	.
=138	=138	=138	=138	=138	=138	=138	=138	=138	=138	=138	=138
0r	.	0r	.	0r	.	0r	.	2f	.	2d	.
.	.	.	.	.	.	.	.	2e	et	2c	.
.	.	.	.	.	.	.	.	2.c	se-	[1cc	-pul-
.	.	.	.	.	.	.	.	4d	.	.	.
=139	=139	=139	=139	=139	=139	=139	=139	=139	=139	=139	=139
0r	.	0r	.	0r	.	0r	.	2e-	.	2cc]	.
.	.	.	.	.	.	.	.	2d	.	1b-	.
.	.	.	.	.	.	.	.	2B-	.	.	.
.	.	.	.	.	.	.	.	[2d	-pul-	4a	.
.	.	.	.	.	.	.	.	.	.	4g	.
=140	=140	=140	=140	=140	=140	=140	=140	=140	=140	=140	=140
0r	.	0r	.	0r	.	0r	.	2d]	.	2f	.
.	.	.	.	.	.	.	.	4c	.	1b-	.
.	.	.	.	.	.	.	.	4B-	.	.	.
.	.	.	.	.	.	.	.	1c	.	.	.
.	.	.	.	.	.	.	.	.	.	2a	.
=141	=141	=141	=141	=141	=141	=141	=141	=141	=141	=141	=141
0r	.	0r	.	0r	.	0r	.	2B-	.	2b-	.
.	.	.	.	.	.	.	.	2.c	.	2.a	.
.	.	.	.	.	.	.	.	.	.	.	.
.	.	.	.	.	.	.	.	4G	.	4g	.
.	.	.	.	.	.	.	.	2B-	-tus	[2g	.
=142	=142	=142	=142	=142	=142	=142	=142	=142	=142	=142	=142
0r	.	0r	.	0r	.	0r	.	1A	est.	2g]	.
.	.	.	.	.	.	.	.	.	.	2f#i	-tus
.	.	.	.	.	.	.	.	2r	.	1g	est.
.	.	.	.	.	.	.	.	2G	Et	.	.
=143	=143	=143	=143	=143	=143	=143	=143	=143	=143	=143	=143
0r	.	0r	.	0r	.	0r	.	2B-	re-	2r	.
.	.	.	.	.	.	.	.	2B-	-sur-	2d	Et
.	.	.	.	.	.	.	.	1A	-re-	2f	re-
.	.	.	.	.	.	.	.	.	.	2f	-sur-
=144	=144	=144	=144	=144	=144	=144	=144	=144	=144	=144	=144
0r	.	0r	.	0r	.	0r	.	1G	-xit	1e	-re-
.	.	.	.	.	.	.	.	2r	.	1d	-xit
.	.	.	.	.	.	.	.	2d	ter-	.	.
=145	=145	=145	=145	=145	=145	=145	=145	=145	=145	=145	=145
0r	.	0r	.	0r	.	0r	.	2f	-ti-	1r	.
.	.	.	.	.	.	.	.	2f	-a	.	.
.	.	.	.	.	.	.	.	1e	di-	2r	.
.	.	.	.	.	.	.	.	.	.	2g	ter-
=146	=146	=146	=146	=146	=146	=146	=146	=146	=146	=146	=146
0r	.	0r	.	0r	.	0r	.	2d	-e,	2b-	-ti-
.	.	.	.	.	.	.	.	1g	se-	2b-	-a
.	.	.	.	.	.	.	.	.	.	1a	di-
.	.	.	.	.	.	.	.	2f	-cun-	.	.
=147	=147	=147	=147	=147	=147	=147	=147	=147	=147	=147	=147
0r	.	0r	.	0r	.	0r	.	2e	-dum	2g	-e,
.	.	.	.	.	.	.	.	2d	Scri-	1dd	se-
.	.	.	.	.	.	.	.	1e	-ptu-	.	.
.	.	.	.	.	.	.	.	.	.	2cc	-cun-
=148	=148	=148	=148	=148	=148	=148	=148	=148	=148	=148	=148
0r	.	0r	.	0r	.	0r	.	1d	-ras,	2b-	-dum
.	.	.	.	.	.	.	.	.	.	2a	Scri-
.	.	.	.	.	.	.	.	2r	.	2b-	.
.	.	.	.	.	.	.	.	2d	Scri-	[2a	-ptu-
=149	=149	=149	=149	=149	=149	=149	=149	=149	=149	=149	=149
0r	.	0r	.	0r	.	0r	.	2c	-ptu-	4a]	.
.	.	.	.	.	.	.	.	.	.	4g	.
.	.	.	.	.	.	.	.	2.d	.	4f	.
.	.	.	.	.	.	.	.	.	.	4e	.
.	.	.	.	.	.	.	.	.	.	2d	.
.	.	.	.	.	.	.	.	4c	.	.	.
.	.	.	.	.	.	.	.	4B-	.	[2b-	.
.	.	.	.	.	.	.	.	4A	.	.	.
=150	=150	=150	=150	=150	=150	=150	=150	=150	=150	=150	=150
0r	.	0r	.	0r	.	0r	.	2G	.	4b-]	.
.	.	.	.	.	.	.	.	.	.	4a	.
.	.	.	.	.	.	.	.	2B-	.	4g	.
.	.	.	.	.	.	.	.	.	.	4f	.
.	.	.	.	.	.	.	.	4c	.	4e	.
.	.	.	.	.	.	.	.	4B-	.	4d	.
.	.	.	.	.	.	.	.	4A	.	[2g	.
.	.	.	.	.	.	.	.	4G	.	.	.
=151	=151	=151	=151	=151	=151	=151	=151	=151	=151	=151	=151
0r	.	0r	.	0r	.	0r	.	1A	.	2g]	.
.	.	.	.	.	.	.	.	.	.	2f#i	.
.	.	.	.	.	.	.	.	1Gl	-ras.	1gl	-ras.
!!LO:LB:i:g=z
=152||	=152||	=152||	=152||	=152||	=152||	=152||	=152||	=152||	=152||	=152||	=152||
*>D	*>D	*>D	*>D	*>D	*>D	*>D	*>D	*>D	*>D	*>D	*>D
*clefF4	*	*clefF4	*	*clefGv2	*	*clefGv2	*	*clefGv2	*	*clefG2	*
*k[b-]	*	*k[b-]	*	*k[b-]	*	*k[b-]	*	*k[b-]	*	*k[b-]	*
*M2/1	*	*M2/1	*	*M2/1	*	*M2/1	*	*M2/1	*	*M2/1	*
*met(C|)	*	*met(C|)	*	*met(C|)	*	*met(C|)	*	*met(C|)	*	*met(C|)	*
!!section: Et ascendit
!!!OMD: Et ascendit
0r	.	1D	Et	0r	.	0r	.	0r	.	0r	.
.	.	2GG	a-	.	.	.	.	.	.	.	.
.	.	[2B-	-scen-	.	.	.	.	.	.	.	.
=153	=153	=153	=153	=153	=153	=153	=153	=153	=153	=153	=153
0r	.	4B-]	.	0r	.	0r	.	0r	.	0r	.
.	.	4A	.	.	.	.	.	.	.	.	.
.	.	1G	.	.	.	.	.	.	.	.	.
.	.	.	.	.	.	.	.	.	.	.	.
.	.	4F	.	.	.	.	.	.	.	.	.
.	.	4E	.	.	.	.	.	.	.	.	.
=154	=154	=154	=154	=154	=154	=154	=154	=154	=154	=154	=154
1D	Et	1F	.	0r	.	0r	.	0r	.	0r	.
2GG	a-	2G	-dit	.	.	.	.	.	.	.	.
[2B-	-scen-	2GG	in	.	.	.	.	.	.	.	.
=155	=155	=155	=155	=155	=155	=155	=155	=155	=155	=155	=155
4B-]	.	2BB-	ce-	0r	.	0r	.	0r	.	0r	.
4A	.	.	.	.	.	.	.	.	.	.	.
1G	.	2C	.	.	.	.	.	.	.	.	.
.	.	2.D	.	.	.	.	.	.	.	.	.
4F	.	.	.	.	.	.	.	.	.	.	.
4E	.	4C	.	.	.	.	.	.	.	.	.
=156	=156	=156	=156	=156	=156	=156	=156	=156	=156	=156	=156
1F	.	2BB-	.	0r	.	0r	.	0r	.	0r	.
.	.	2AA	.	.	.	.	.	.	.	.	.
2G	-dit	4GG	.	.	.	.	.	.	.	.	.
.	.	4AA	.	.	.	.	.	.	.	.	.
2GG	in	4BB-	.	.	.	.	.	.	.	.	.
.	.	4C	.	.	.	.	.	.	.	.	.
=157	=157	=157	=157	=157	=157	=157	=157	=157	=157	=157	=157
2BB-	ce-	2D	.	0r	.	0r	.	0r	.	0r	.
2C	.	2E	.	.	.	.	.	.	.	.	.
2.D	.	1F	.	.	.	.	.	.	.	.	.
4C	.	.	.	.	.	.	.	.	.	.	.
=158	=158	=158	=158	=158	=158	=158	=158	=158	=158	=158	=158
2BB-	.	2G	.	0r	.	0r	.	0r	.	0r	.
2AA	.	2A	.	.	.	.	.	.	.	.	.
2GG	.	2B-	.	.	.	.	.	.	.	.	.
[2C	.	[2A	.	.	.	.	.	.	.	.	.
=159	=159	=159	=159	=159	=159	=159	=159	=159	=159	=159	=159
4C]	.	4A]	.	0r	.	0r	.	0r	.	0r	.
4BB-	.	4G	.	.	.	.	.	.	.	.	.
4AA	.	1G	.	.	.	.	.	.	.	.	.
4GG	.	.	.	.	.	.	.	.	.	.	.
1AA	.	.	.	.	.	.	.	.	.	.	.
.	.	2F#i	.	.	.	.	.	.	.	.	.
=160	=160	=160	=160	=160	=160	=160	=160	=160	=160	=160	=160
[0GG	-lum:	1G	-lum:	0r	.	0r	.	0r	.	0r	.
.	.	2r	.	.	.	.	.	.	.	.	.
.	.	2D	se-	.	.	.	.	.	.	.	.
=161	=161	=161	=161	=161	=161	=161	=161	=161	=161	=161	=161
1GG]	.	2.D	-det	0r	.	0r	.	0r	.	0r	.
.	.	4E	.	.	.	.	.	.	.	.	.
2r	.	4F	.	.	.	.	.	.	.	.	.
.	.	4D	.	.	.	.	.	.	.	.	.
2D	se-	[2F	.	.	.	.	.	.	.	.	.
=162	=162	=162	=162	=162	=162	=162	=162	=162	=162	=162	=162
2.D	-det	4F]	.	0r	.	0r	.	0r	.	0r	.
.	.	4E	.	.	.	.	.	.	.	.	.
.	.	4D	.	.	.	.	.	.	.	.	.
4E	.	4C	.	.	.	.	.	.	.	.	.
4F	.	1BB-	.	.	.	.	.	.	.	.	.
4D	.	.	.	.	.	.	.	.	.	.	.
[2F	.	.	.	.	.	.	.	.	.	.	.
=163	=163	=163	=163	=163	=163	=163	=163	=163	=163	=163	=163
4F]	.	1AA	.	0r	.	0r	.	0r	.	0r	.
4E	.	.	.	.	.	.	.	.	.	.	.
4D	.	.	.	.	.	.	.	.	.	.	.
4C	.	.	.	.	.	.	.	.	.	.	.
2BB-	.	2GG	.	.	.	.	.	.	.	.	.
2GG	ad	2G	ad	.	.	.	.	.	.	.	.
=164	=164	=164	=164	=164	=164	=164	=164	=164	=164	=164	=164
2BB-	de-	2.G	de-	0r	.	0r	.	0r	.	0r	.
2C	.	.	.	.	.	.	.	.	.	.	.
.	.	4A	.	.	.	.	.	.	.	.	.
1D	-xte-	4B-	.	.	.	.	.	.	.	.	.
.	.	4G	.	.	.	.	.	.	.	.	.
.	.	[2B-	-xte-	.	.	.	.	.	.	.	.
=165	=165	=165	=165	=165	=165	=165	=165	=165	=165	=165	=165
2BB-	-ram	4B-]	.	0r	.	0r	.	0r	.	0r	.
.	.	4A	.	.	.	.	.	.	.	.	.
2.C	Pa-	4G	.	.	.	.	.	.	.	.	.
.	.	4F	.	.	.	.	.	.	.	.	.
.	.	4E	.	.	.	.	.	.	.	.	.
4BB-	.	4D	.	.	.	.	.	.	.	.	.
[2E-i	.	[2G	.	.	.	.	.	.	.	.	.
=166	=166	=166	=166	=166	=166	=166	=166	=166	=166	=166	=166
4E-]	.	2G]	.	0r	.	0r	.	0r	.	0r	.
4D	.	.	.	.	.	.	.	.	.	.	.
1D	.	2F	-ram	.	.	.	.	.	.	.	.
.	.	1E	Pa-	.	.	.	.	.	.	.	.
2C#i	.	.	.	.	.	.	.	.	.	.	.
=167	=167	=167	=167	=167	=167	=167	=167	=167	=167	=167	=167
0D	-tris.	1D	-tris.	0r	.	0r	.	0r	.	0r	.
.	.	2r	.	.	.	.	.	.	.	.	.
.	.	2D	Et	.	.	.	.	.	.	.	.
=168	=168	=168	=168	=168	=168	=168	=168	=168	=168	=168	=168
2r	.	2.G	i-	0r	.	0r	.	0r	.	0r	.
2GG	Et	.	.	.	.	.	.	.	.	.	.
.	.	4G	-te-	.	.	.	.	.	.	.	.
2.C	i-	2G	-rum	.	.	.	.	.	.	.	.
.	.	2G	ven-	.	.	.	.	.	.	.	.
4C	-te-	.	.	.	.	.	.	.	.	.	.
=169	=169	=169	=169	=169	=169	=169	=169	=169	=169	=169	=169
2C	-rum	2A	-tu-	0r	.	0r	.	0r	.	0r	.
2C	ven-	2A	-rus	.	.	.	.	.	.	.	.
2D	-tu-	1F	est	.	.	.	.	.	.	.	.
2D	-rus	.	.	.	.	.	.	.	.	.	.
=170	=170	=170	=170	=170	=170	=170	=170	=170	=170	=170	=170
1BB-	est	2r	.	0r	.	0r	.	0r	.	0r	.
.	.	2D	cum	.	.	.	.	.	.	.	.
2r	.	2G	glo-	.	.	.	.	.	.	.	.
2GG	cum	4G	-ri-	.	.	.	.	.	.	.	.
.	.	4G	-a,	.	.	.	.	.	.	.	.
=171	=171	=171	=171	=171	=171	=171	=171	=171	=171	=171	=171
2C	glo-	2G	ju-	0r	.	0r	.	0r	.	0r	.
4C	-ri-	2G	-di-	.	.	.	.	.	.	.	.
4C	-a,	.	.	.	.	.	.	.	.	.	.
2C	ju-	1A	-ca-	.	.	.	.	.	.	.	.
2C	-di-	.	.	.	.	.	.	.	.	.	.
=172	=172	=172	=172	=172	=172	=172	=172	=172	=172	=172	=172
1D	-ca-	2F	-re	0r	.	0r	.	0r	.	0r	.
.	.	2F	vi-	.	.	.	.	.	.	.	.
2BB-	-re	1G	-vos	.	.	.	.	.	.	.	.
2C	vi-	.	.	.	.	.	.	.	.	.	.
=173	=173	=173	=173	=173	=173	=173	=173	=173	=173	=173	=173
2C	-vos	2E	et	0r	.	0r	.	0r	.	0r	.
2AA	et	2.F	mor-	.	.	.	.	.	.	.	.
2.BB-	mor-	.	.	.	.	.	.	.	.	.	.
.	.	4E	.	.	.	.	.	.	.	.	.
.	.	4D	.	.	.	.	.	.	.	.	.
4AA	.	4C	.	.	.	.	.	.	.	.	.
=174	=174	=174	=174	=174	=174	=174	=174	=174	=174	=174	=174
4GG	.	2BB-	.	0r	.	0r	.	0r	.	0r	.
4FF	.	.	.	.	.	.	.	.	.	.	.
1BB-	-tu-	2D	.	.	.	.	.	.	.	.	.
.	.	1C	-tu-	.	.	.	.	.	.	.	.
2AA	.	.	.	.	.	.	.	.	.	.	.
=175	=175	=175	=175	=175	=175	=175	=175	=175	=175	=175	=175
0BB-	-os:	1BB-	-os:	0r	.	0r	.	0r	.	0r	.
.	.	2r	.	.	.	.	.	.	.	.	.
.	.	[2D	cu-	.	.	.	.	.	.	.	.
=176	=176	=176	=176	=176	=176	=176	=176	=176	=176	=176	=176
2r	.	4D]	.	0r	.	0r	.	0r	.	0r	.
.	.	4E	.	.	.	.	.	.	.	.	.
2.D	cu-	2F	-ius	.	.	.	.	.	.	.	.
.	.	2.BB-	re-	.	.	.	.	.	.	.	.
4E	.	.	.	.	.	.	.	.	.	.	.
2F	-ius	.	.	.	.	.	.	.	.	.	.
.	.	4C	.	.	.	.	.	.	.	.	.
=177	=177	=177	=177	=177	=177	=177	=177	=177	=177	=177	=177
2.BB-	re-	2D	-gni	0r	.	0r	.	0r	.	0r	.
.	.	2.GG	non	.	.	.	.	.	.	.	.
4C	.	.	.	.	.	.	.	.	.	.	.
2D	-gni	.	.	.	.	.	.	.	.	.	.
.	.	4AA	.	.	.	.	.	.	.	.	.
4GG	non	4BB-	.	.	.	.	.	.	.	.	.
4AA	.	4C	.	.	.	.	.	.	.	.	.
=178	=178	=178	=178	=178	=178	=178	=178	=178	=178	=178	=178
4BB-	.	4D	.	0r	.	0r	.	0r	.	0r	.
4C	.	4E	.	.	.	.	.	.	.	.	.
1D	.	2.F	.	.	.	.	.	.	.	.	.
.	.	4D	.	.	.	.	.	.	.	.	.
2C	.	2E	e-	.	.	.	.	.	.	.	.
=179	=179	=179	=179	=179	=179	=179	=179	=179	=179	=179	=179
2AA	.	4C	-rit	0r	.	0r	.	0r	.	0r	.
.	.	4D	.	.	.	.	.	.	.	.	.
1C	e-	4E	.	.	.	.	.	.	.	.	.
.	.	4F	.	.	.	.	.	.	.	.	.
.	.	4G	.	.	.	.	.	.	.	.	.
.	.	4A	.	.	.	.	.	.	.	.	.
2BB-	-rit	[2B-	.	.	.	.	.	.	.	.	.
=180	=180	=180	=180	=180	=180	=180	=180	=180	=180	=180	=180
2GG	fi-	2B-]	.	0r	.	0r	.	0r	.	0r	.
2AA	.	4A	.	.	.	.	.	.	.	.	.
.	.	4G	.	.	.	.	.	.	.	.	.
2.BB-	.	2F	.	.	.	.	.	.	.	.	.
.	.	2G	.	.	.	.	.	.	.	.	.
4AA	.	.	.	.	.	.	.	.	.	.	.
=181	=181	=181	=181	=181	=181	=181	=181	=181	=181	=181	=181
2BB-	.	2D	.	0r	.	0r	.	0r	.	0r	.
2C	.	1G	fi-	.	.	.	.	.	.	.	.
1AA	.	.	.	.	.	.	.	.	.	.	.
.	.	2F#i	.	.	.	.	.	.	.	.	.
=182	=182	=182	=182	=182	=182	=182	=182	=182	=182	=182	=182
0GGl	-nis.	0Gl	-nis.	0r	.	0r	.	0r	.	0r	.
!!LO:LB:i:g=z
=183||	=183||	=183||	=183||	=183||	=183||	=183||	=183||	=183||	=183||	=183||	=183||
*>E	*>E	*>E	*>E	*>E	*>E	*>E	*>E	*>E	*>E	*>E	*>E
*clefF4	*	*clefF4	*	*clefGv2	*	*clefGv2	*	*clefGv2	*	*clefG2	*
*k[b-]	*	*k[b-]	*	*k[b-]	*	*k[b-]	*	*k[b-]	*	*k[b-]	*
*M2/1	*	*M2/1	*	*M2/1	*	*M2/1	*	*M2/1	*	*M2/1	*
*met(C|)	*	*met(C|)	*	*met(C|)	*	*met(C|)	*	*met(C|)	*	*met(C|)	*
!!section: Et in spiritum
!!!OMD: Et in spiritum
1r	.	0r	.	0r	.	2.B-	Et	0r	.	0r	.
.	.	.	.	.	.	4c	.	.	.	.	.
2.BB-	Et	.	.	.	.	2d	.	.	.	.	.
.	.	.	.	.	.	2G	in	.	.	.	.
4BB-	in	.	.	.	.	.	.	.	.	.	.
=184	=184	=184	=184	=184	=184	=184	=184	=184	=184	=184	=184
2BB-	Spi-	0r	.	0r	.	2.B-	Spi-	0r	.	0r	.
2BB-	-ri-	.	.	.	.	.	.	.	.	.	.
.	.	.	.	.	.	4c	.	.	.	.	.
1BB-	-tum	.	.	.	.	2d	.	.	.	.	.
.	.	.	.	.	.	[2G	-ri-	.	.	.	.
=185	=185	=185	=185	=185	=185	=185	=185	=185	=185	=185	=185
1C	San-	1r	.	0r	.	2G]	.	0r	.	0r	.
.	.	.	.	.	.	4F	.	.	.	.	.
.	.	.	.	.	.	4E	.	.	.	.	.
2BB-	-ctum,	2.F	Et	.	.	2D	-tum	.	.	.	.
[2BB-	Do-	.	.	.	.	[2d	San-	.	.	.	.
.	.	4F	in	.	.	.	.	.	.	.	.
=186	=186	=186	=186	=186	=186	=186	=186	=186	=186	=186	=186
2BB-]	.	2F	Spi-	0r	.	2d]	.	0r	.	0r	.
4AA	.	2F	-ri-	.	.	4c	.	.	.	.	.
4GG	.	.	.	.	.	4B-	.	.	.	.	.
1AA	.	1F	-tum	.	.	1c	-ctum,	.	.	.	.
=187	=187	=187	=187	=187	=187	=187	=187	=187	=187	=187	=187
2.GG	.	1G	San-	0r	.	1.B-	Do-	0r	.	0r	.
4AA	.	.	.	.	.	.	.	.	.	.	.
4BB-	.	2F	-ctum,	.	.	.	.	.	.	.	.
4C	.	.	.	.	.	.	.	.	.	.	.
[2D	.	[2F	Do-	.	.	[2A	.	.	.	.	.
=188	=188	=188	=188	=188	=188	=188	=188	=188	=188	=188	=188
2D]	.	2F]	.	0r	.	2A]	.	0r	.	0r	.
4C	.	4E	.	.	.	1d	.	.	.	.	.
4BB-	.	4D	.	.	.	.	.	.	.	.	.
1AA	.	1E	-mi-	.	.	.	.	.	.	.	.
.	.	.	.	.	.	2c#i	-mi-	.	.	.	.
=189	=189	=189	=189	=189	=189	=189	=189	=189	=189	=189	=189
1.BB-	.	2D	-num,	1r	.	[0d	-num,	0r	.	2.b-	et
.	.	2F	et	.	.	.	.	.	.	.	.
.	.	.	.	.	.	.	.	.	.	4cc	.
.	.	2F	vi-	[1B-	et	.	.	.	.	2dd	.
2GG	-mi-	[2G	-vi-	.	.	.	.	.	.	2g	vi-
=190	=190	=190	=190	=190	=190	=190	=190	=190	=190	=190	=190
1GG	-num,	2G]	.	1B-]	.	1d]	.	0r	.	2.b-	-vi-
.	.	4F	.	.	.	.	.	.	.	.	.
.	.	4E	.	.	.	.	.	.	.	4cc	.
1r	.	2D	.	1B-	vi-	1r	.	.	.	2dd	.
.	.	2E-	-fi-	.	.	.	.	.	.	[2g	-fi-
=191	=191	=191	=191	=191	=191	=191	=191	=191	=191	=191	=191
0r	.	4C	-can-	1c	-vi-	0r	.	1r	.	2g]	.
.	.	4D	.	.	.	.	.	.	.	.	.
.	.	4Eni	.	.	.	.	.	.	.	4f	.
.	.	4F	.	.	.	.	.	.	.	4e	.
.	.	1G	-tem:	2B-	-fi-	.	.	2r	.	2d	.
.	.	.	.	[2B-	-can-	.	.	2d	et	[2dd	-can-
=192	=192	=192	=192	=192	=192	=192	=192	=192	=192	=192	=192
0r	.	0r	.	2B-]	.	0r	.	1.f	vi-	2dd]	.
.	.	.	.	4A	.	.	.	.	.	4cc	.
.	.	.	.	4G	.	.	.	.	.	4b-	.
.	.	.	.	1A	.	.	.	.	.	1cc	.
.	.	.	.	.	.	.	.	2f	-vi-	.	.
=193	=193	=193	=193	=193	=193	=193	=193	=193	=193	=193	=193
0r	.	0r	.	2.G	.	0r	.	1g	-fi-	1.b-	.
.	.	.	.	4A	.	.	.	.	.	.	.
.	.	.	.	4B-	.	.	.	2f	.	.	.
.	.	.	.	4c	.	.	.	.	.	.	.
.	.	.	.	[2d	.	.	.	[2f	-can-	[2a	.
=194	=194	=194	=194	=194	=194	=194	=194	=194	=194	=194	=194
0r	.	0r	.	2d]	.	0r	.	4f]	.	2a]	.
.	.	.	.	.	.	.	.	4e	.	.	.
.	.	.	.	2G	.	.	.	1d	.	4g	.
.	.	.	.	.	.	.	.	.	.	4f	.
.	.	.	.	1A	.	.	.	.	.	1e	.
.	.	.	.	.	.	.	.	2c#i	.	.	.
=195	=195	=195	=195	=195	=195	=195	=195	=195	=195	=195	=195
2r	.	0r	.	1D	-tem:	1A	qui	[0d	-tem:	1d	-tem:
2F	qui	.	.	.	.	.	.	.	.	.	.
2G	ex	.	.	1r	.	2B-	ex	.	.	1r	.
2GG	Pa-	.	.	.	.	2G	.	.	.	.	.
=196	=196	=196	=196	=196	=196	=196	=196	=196	=196	=196	=196
1D	-tre	2r	.	0r	.	1A	Pa-	0d_	.	1a	Fi-
.	.	2F	Fi-	.	.	.	.	.	.	.	.
1r	.	2G	-li-	.	.	2G	.	.	.	2b-	-li-
.	.	2GG	-o-	.	.	2B-	.	.	.	2g	-o
=197	=197	=197	=197	=197	=197	=197	=197	=197	=197	=197	=197
2r	.	1D	-que	2r	.	1A	-tre	0d_	.	2a	que
2F	pro-	.	.	2A	Fi-	.	.	.	.	2a	pro-
2G	.	1r	.	2B-	-li-	1r	.	.	.	1g	-ce-
2GG	-ce-	.	.	2G	-o-	.	.	.	.	.	.
=198	=198	=198	=198	=198	=198	=198	=198	=198	=198	=198	=198
1D	-dit.	2r	.	1A	-que	0r	.	0d_	.	2f	-dit.
.	.	2F	Qui	.	.	.	.	.	.	2a	Qui
1r	.	2G	cum	2G	pro-	.	.	.	.	2b-	cum
.	.	2GG	Pa-	2B-	-ce-	.	.	.	.	2g	Pa-
=199	=199	=199	=199	=199	=199	=199	=199	=199	=199	=199	=199
2r	.	1D	-tre	1A	-dit.	2r	.	0d_	.	1a	-tre
2F	et	.	.	.	.	2A	et	.	.	.	.
2G	Fi-	2r	.	1r	.	2B-	Fi-	.	.	2g	et
2GG	.	2G	et	.	.	2G	.	.	.	[2b-	Fi-
=200	=200	=200	=200	=200	=200	=200	=200	=200	=200	=200	=200
1D	-li-	2G	Fi-	1r	.	1A	-li-	0d]	.	4b-]	.
.	.	.	.	.	.	.	.	.	.	4a	.
.	.	2F	-li-	.	.	.	.	.	.	1a	.
1GG	-o	1G	-o	2r	.	1B-	.	.	.	.	.
.	.	.	.	[2d	si-	.	.	.	.	2g	-li-
=201	=201	=201	=201	=201	=201	=201	=201	=201	=201	=201	=201
2.D	si-	2.F	si-	2d]	.	[0A	-o	0r	.	[0a	-o
.	.	.	.	2d	-mul	.	.	.	.	.	.
4D	-mul	4F	-mul	.	.	.	.	.	.	.	.
2AA	a-	2E	a-	2c	a-	.	.	.	.	.	.
2C	-do-	2E	-do-	2e	-do-	.	.	.	.	.	.
=202	=202	=202	=202	=202	=202	=202	=202	=202	=202	=202	=202
1D	-ra-	2D	-ra-	2f	-ra-	0A]	.	0r	.	0a_	.
.	.	2F	.	1d	.	.	.	.	.	.	.
1AA	-tur:	1E	.	.	.	.	.	.	.	.	.
.	.	.	.	2c#i	-tur,	.	.	.	.	.	.
=203	=203	=203	=203	=203	=203	=203	=203	=203	=203	=203	=203
0r	.	1D	-tur:	2.d	et	2r	.	2.f	et	0a_	.
.	.	.	.	.	.	2d	et	.	.	.	.
.	.	.	.	4d	con-	.	.	4f	con-	.	.
.	.	1r	.	2A	-glo-	2c	con-	2e	-glo-	.	.
.	.	.	.	2c	-ri-	2e	-glo-	2e	-ri-	.	.
=204	=204	=204	=204	=204	=204	=204	=204	=204	=204	=204	=204
1r	.	1r	.	2d	-fi-	2f	-ri-	2d	-fi-	0a]	.
.	.	.	.	2D	.	1d	-fi-	2f	.	.	.
1AA	qui	1E	qui	[1A	-ca-	.	.	1e	-ca-	.	.
.	.	.	.	.	.	2c#i	-ca-	.	.	.	.
=205	=205	=205	=205	=205	=205	=205	=205	=205	=205	=205	=205
1.D	lo-	2F	lo-	1A]	.	[0d	-tur:	2d	-tur:	0r	.
.	.	1D	-cu-	.	.	.	.	1A	qui	.	.
.	.	.	.	[1D	.	.	.	.	.	.	.
2C	.	2E	.	.	.	.	.	2A	lo-	.	.
=206	=206	=206	=206	=206	=206	=206	=206	=206	=206	=206	=206
2BB-	-cu-	2F	.	0D]	.	0d]	.	1B-	-cu-	1r	.
2GG	.	1G	.	.	.	.	.	.	.	.	.
1D	-tus	.	.	.	.	.	.	1A	-tus	1a	que
.	.	2F#i	-tus	.	.	.	.	.	.	.	.
=207	=207	=207	=207	=207	=207	=207	=207	=207	=207	=207	=207
0GG	est	1.G	est,	0D	-tur:	1d	qui	1G	est	2b-	pro-
.	.	.	.	.	.	.	.	.	.	1g	-ce-
.	.	.	.	.	.	1B-	lo-	1g	per	.	.
.	.	2F	qui	.	.	.	.	.	.	2a	.
=208	=208	=208	=208	=208	=208	=208	=208	=208	=208	=208	=208
1r	.	2E-	lo-	1r	.	1e-	-cu-	2g	Pro-	2b-	.
.	.	2C	.	.	.	.	.	[2g	-phe-	1cc	.
1GG	per	1G	-cu-	[1G	qui	1d	-tus	4g]	.	.	.
.	.	.	.	.	.	.	.	4f	.	.	.
.	.	.	.	.	.	.	.	2d	.	2bni	-dit.
=209	=209	=209	=209	=209	=209	=209	=209	=209	=209	=209	=209
1.C	Pro-	1C	-tus	1G]	.	[0c	est	2e	.	0cc	Qui
.	.	.	.	.	.	.	.	1c	.	.	.
.	.	1G	.	1E	lo-	.	.	.	.	.	.
2BB-	.	.	.	.	.	.	.	2d	.	.	.
=210	=210	=210	=210	=210	=210	=210	=210	=210	=210	=210	=210
2AA	.	0r	.	1A	-cu-	1c]	.	2e	.	2r	.
2FF	.	.	.	.	.	.	.	1f	.	1cc	cum
1C	.	.	.	1G	-tus	2r	.	.	.	.	.
.	.	.	.	.	.	2G	per	2e	.	2cc	Pa-
=211	=211	=211	=211	=211	=211	=211	=211	=211	=211	=211	=211
2FF	.	0r	.	1F	est	2A	Pro-	1f	-tas,	2.cc	-tre
1F	-phe-	.	.	.	.	1F	-phe-	.	.	.	.
.	.	.	.	.	.	.	.	.	.	4b-	.
.	.	.	.	1c	per	.	.	1r	.	2a	.
2E	.	.	.	.	.	2G	.	.	.	2g	.
=212	=212	=212	=212	=212	=212	=212	=212	=212	=212	=212	=212
2D	.	2r	.	1d	Pro-	2A	.	0f	per	2f	et
2BB-	.	1F	per	.	.	1B-	.	.	.	2b-	Fi-
1F	.	.	.	1c	-phe-	.	.	.	.	1cc	.
.	.	2F	Pro-	.	.	2A	.	.	.	.	.
=213	=213	=213	=213	=213	=213	=213	=213	=213	=213	=213	=213
1BB-	.	1F	-phe-	0B-	-tas.	1.B-	.	0d	Pro-	1.dd	-li-
1GG	.	1G	.	.	.	.	.	.	.	.	.
.	.	.	.	.	.	4A	.	.	.	[2b-	.
.	.	.	.	.	.	4G	.	.	.	.	.
=214	=214	=214	=214	=214	=214	=214	=214	=214	=214	=214	=214
[0D	.	1.F	.	0r	.	2.B-	.	0d	-phe-	2b-]	.
.	.	.	.	.	.	.	.	.	.	4a	.
.	.	.	.	.	.	4c	.	.	.	4g	.
.	.	.	.	.	.	2A	.	.	.	2f	.
.	.	2D	.	.	.	2F	.	.	.	[2a	.
=215	=215	=215	=215	=215	=215	=215	=215	=215	=215	=215	=215
0D]	.	1D	-tas.	1r	.	2G	.	0d	-tas.	4a]	.
.	.	.	.	.	.	.	.	.	.	4d	.
.	.	.	.	.	.	2B-	.	.	.	1g	.
.	.	1r	.	2r	.	1A	.	.	.	.	.
.	.	.	.	2d	Et	.	.	.	.	2f#i	.
=216	=216	=216	=216	=216	=216	=216	=216	=216	=216	=216	=216
[0GG	-tas.	2r	.	2B-	u-	[0G	-tas.	0r	.	2g	-tas.
.	.	2B-	Et	2.d	-nam	.	.	.	.	2dd	Et
.	.	2G	u-	.	.	.	.	.	.	2b-	u-
.	.	.	.	4c	.	.	.	.	.	.	.
.	.	[2B-	-nam	4B-	.	.	.	.	.	[2dd	-nam
.	.	.	.	4A	.	.	.	.	.	.	.
=217	=217	=217	=217	=217	=217	=217	=217	=217	=217	=217	=217
1GG]	.	4B-]	.	1G	.	1G]	.	2r	.	4dd]	.
.	.	4A	.	.	.	.	.	.	.	4cc	.
.	.	1G	san-	.	.	.	.	2d	Et	1b-	.
1r	.	.	.	1G	san-	1r	.	2B-	u-	.	.
.	.	4F	.	.	.	.	.	[2d	-nam	4a	.
.	.	4E	.	.	.	.	.	.	.	4g	.
=218	=218	=218	=218	=218	=218	=218	=218	=218	=218	=218	=218
0r	.	2D	.	2A	-ctam	0r	.	4d]	.	2f	.
.	.	.	.	.	.	.	.	4c	.	.	.
.	.	2GG	-ctam	1d	ca-	.	.	1B-	san-	2g	.
.	.	1D	ca-	.	.	.	.	.	.	[1f	san-
.	.	.	.	4c	.	.	.	4A	.	.	.
.	.	.	.	4B-	.	.	.	4G	.	.	.
=219	=219	=219	=219	=219	=219	=219	=219	=219	=219	=219	=219
0r	.	2D	-tho-	2A	.	0r	.	2F	.	2f]	.
.	.	1BB-	.	4B-	-tho-	.	.	2F	-ctam	2d	-ctam
.	.	.	.	4A	.	.	.	.	.	.	.
.	.	.	.	4G	.	.	.	2G	ca-	2d	ca-
.	.	.	.	4F	.	.	.	.	.	.	.
.	.	2AA	.	[2F	.	.	.	2A	-tho-	2f	.
=220	=220	=220	=220	=220	=220	=220	=220	=220	=220	=220	=220
0r	.	1GG	.	2F]	.	0r	.	1B-	-li-	2g	.
.	.	.	.	2E	-li-	.	.	.	.	1b-	-tho-
.	.	1FF	-li-	1F	-cam,	.	.	1c	.	.	.
.	.	.	.	.	.	.	.	.	.	2a	-li-
=221	=221	=221	=221	=221	=221	=221	=221	=221	=221	=221	=221
2r	.	1BB-	-cam	1F	ca-	2r	.	[0B-	-cam	[0b-	-cam
2BB-	et	.	.	.	.	2d	et	.	.	.	.
2GG	a-	1r	.	2G	-tho-	2B-	a-	.	.	.	.
[2BB-	-po-	.	.	2F	-li-	[2d	-po-	.	.	.	.
=222	=222	=222	=222	=222	=222	=222	=222	=222	=222	=222	=222
4BB-]	.	0r	.	1D	-cam	4d]	.	1B-]	.	1b-]	.
4AA	.	.	.	.	.	4c	.	.	.	.	.
1GG	-sto-	.	.	.	.	4B-	.	.	.	.	.
.	.	.	.	.	.	4A	.	.	.	.	.
.	.	.	.	2r	.	2G	.	1r	.	1r	.
2FF	.	.	.	2F	et	2A	.	.	.	.	.
=223	=223	=223	=223	=223	=223	=223	=223	=223	=223	=223	=223
2GG	.	0r	.	2D	a-	1B-	-sto-	0r	.	0r	.
2.D	.	.	.	2.F	-po-	.	.	.	.	.	.
.	.	.	.	.	.	1A	.	.	.	.	.
4E	.	.	.	4E	.	.	.	.	.	.	.
2F	.	.	.	[2D	-sto-	.	.	.	.	.	.
=224	=224	=224	=224	=224	=224	=224	=224	=224	=224	=224	=224
2D	.	0r	.	2D]	.	2B-	.	1r	.	0r	.
1G	.	.	.	2C	-li-	2c	.	.	.	.	.
.	.	.	.	1D	-cam	1A	-li-	2r	.	.	.
2F#i	-li-	.	.	.	.	.	.	2d	Ec-	.	.
=225	=225	=225	=225	=225	=225	=225	=225	=225	=225	=225	=225
1.G	-cam	0r	.	0r	.	2G	-cam	2B-	.	2r	.
.	.	.	.	.	.	2d	Ec-	2.d	-cle-	2b-	Ec-
.	.	.	.	.	.	2B-	.	.	.	2g	.
.	.	.	.	.	.	.	.	4c	.	.	.
[2GG	Ec-	.	.	.	.	[2d	-cle-	4B-	.	[2b-	-cle-
.	.	.	.	.	.	.	.	4A	.	.	.
=226	=226	=226	=226	=226	=226	=226	=226	=226	=226	=226	=226
4GG]	.	0r	.	0r	.	4d]	.	2G	.	4b-]	.
4AA	.	.	.	.	.	4c	.	.	.	4a	.
2BB-	.	.	.	.	.	4B-	.	2d	.	4g	.
.	.	.	.	.	.	4A	.	.	.	4f	.
2C	-cle-	.	.	.	.	2G	.	2c	.	2e	.
2D	.	.	.	.	.	2F	.	[2B-	.	[2d	.
=227	=227	=227	=227	=227	=227	=227	=227	=227	=227	=227	=227
1E-	-si-	0r	.	1r	.	1G	-si-	4B-]	.	2d]	.
.	.	.	.	.	.	.	.	4A	.	.	.
.	.	.	.	.	.	.	.	1G	.	2c	-si-
1D	-am.	.	.	2r	.	1A	.	.	.	[1d	-am.
.	.	.	.	2d	Con-	.	.	2F#i	-si-	.	.
=228	=228	=228	=228	=228	=228	=228	=228	=228	=228	=228	=228
1GG	.	1.GG	Con-	2B-	-fi-	2G	-am.	2G	-am.	2d]	.
.	.	.	.	2d	-te-	1B-	Con-	2.G	Con-	2g	Con-
1r	.	.	.	2d	-or	.	.	.	.	2b-	-fi-
.	.	.	.	.	.	.	.	4F	.	.	.
.	.	2AA	.	2c	u-	2A	.	2E	.	2cc	-te-
=229	=229	=229	=229	=229	=229	=229	=229	=229	=229	=229	=229
1r	.	2BB-	-fi-	2.B-	.	2G	-fi-	2D	.	1dd	-or,
.	.	2BB-	-te-	.	.	2F	.	1d	-fi-	.	.
.	.	.	.	4A	.	.	.	.	.	.	.
1r	.	1C	-or	[1G	-num	1E	-te-	.	.	2r	.
.	.	.	.	.	.	.	.	2c	-te-	2g	con-
=230	=230	=230	=230	=230	=230	=230	=230	=230	=230	=230	=230
2r	.	2GG	u-	2G]	.	2.D	-or	0d	-or	2.b-	-fi-
1D	Con-	2BB-	-num	2F	ba-	.	.	.	.	.	.
.	.	.	.	.	.	4E	.	.	.	4cc	-te-
.	.	2BB-	ba-	1B-	-pti-	2F	.	.	.	1dd	.
2E	.	4AA	.	.	.	2G	.	.	.	.	.
.	.	4GG	.	.	.	.	.	.	.	.	.
=231	=231	=231	=231	=231	=231	=231	=231	=231	=231	=231	=231
2F	-fi-	1AA	-pti-	1A	-sma	1C	u-	1c	u-	2r	.
2F	-te-	.	.	.	.	.	.	.	.	2a	-u-
1G	-or	1GG	-sma	1r	.	2.D	-num	2B-	-num	1b-	-num
.	.	.	.	.	.	.	.	2d	ba-	.	.
.	.	.	.	.	.	4E	.	.	.	.	.
=232	=232	=232	=232	=232	=232	=232	=232	=232	=232	=232	=232
2D	u-	0r	.	1.A	in	4F	.	2d	-pti-	1a	ba-
.	.	.	.	.	.	4G	.	.	.	.	.
2F	-num	.	.	.	.	4A	.	2c	.	.	.
.	.	.	.	.	.	4B-	.	.	.	.	.
2F	ba-	.	.	.	.	2c	.	1f	.	1a	-pti-
4E	.	.	.	2B-	re-	2d	ba-	.	.	.	.
4D	.	.	.	.	.	.	.	.	.	.	.
=233	=233	=233	=233	=233	=233	=233	=233	=233	=233	=233	=233
1E	-pti-	1r	.	2c	-mis-	1G	-pti-	1e	-sma	1g	.
.	.	.	.	2c	-si-	.	.	.	.	.	.
1D	-sma	2r	.	1d	-o-	1A	-sma	2r	.	[1f	-sma
.	.	[2F	in	.	.	.	.	2A	in	.	.
=234	=234	=234	=234	=234	=234	=234	=234	=234	=234	=234	=234
2r	.	2F]	.	2A	-nem	1r	.	2.c	re-	1f]	.
2E	in	4E	.	1c	pec-	.	.	.	.	.	.
.	.	4D	.	.	.	.	.	4d	.	.	.
2F	re-	2C	re-	.	.	2r	.	2e	-mis-	1r	.
2D	-mis-	2D	-mis-	4B-	.	[2d	in	2f	-si-	.	.
.	.	.	.	4A	.	.	.	.	.	.	.
=235	=235	=235	=235	=235	=235	=235	=235	=235	=235	=235	=235
2F	-si-	2BB-	-si-	2B-	.	2d]	.	2d	.	1r	.
2G	-o-	2GG	-o-	2B-	-ca-	2d	re-	1g	-o-	.	.
1D	-nem	1D	-nem	1A	-to-	1d	-mis-	.	.	1a	pec-
.	.	.	.	.	.	.	.	2f#i	.	.	.
=236	=236	=236	=236	=236	=236	=236	=236	=236	=236	=236	=236
1GG	pec-	2r	.	1G	-rum,	2B-	-si-	1g	-nem	1b-	-ca-
.	.	1D	pec-	.	.	1d	-o-	.	.	.	.
2BB-	-ca-	.	.	1r	.	.	.	1r	.	1g	.
2C	.	2E	-ca-	.	.	2c	.	.	.	.	.
=237	=237	=237	=237	=237	=237	=237	=237	=237	=237	=237	=237
1AA	-to-	3.CV	-to-	1r	.	0c	-nem	0r	.	0a	-to-
.	.	6D	.	.	.	.	.	.	.	.	.
.	.	3EZ	.	.	.	.	.	.	.	.	.
1FF	.	1F	.	1A	pec-	.	.	.	.	.	.
=238	=238	=238	=238	=238	=238	=238	=238	=238	=238	=238	=238
1GG	-rum.	2D	-rum,	1B-	-ca-	2r	.	2r	.	1g	-rum.
.	.	2GG	pec-	.	.	1G	pec-	1d	pec-	.	.
1r	.	2BB-	-ca-	1G	.	.	.	.	.	1r	.
.	.	2C	.	.	.	2E	-ca-	2e	-ca-	.	.
=239	=239	=239	=239	=239	=239	=239	=239	=239	=239	=239	=239
0r	.	1AA	-to-	0A	-to-	2E	-to-	3.cV	-to-	1r	.
.	.	.	.	.	.	2C	.	6d	.	.	.
.	.	.	.	.	.	.	.	3eZ	.	.	.
.	.	1FF	.	.	.	1c	.	1f	.	1a	Et
=240	=240	=240	=240	=240	=240	=240	=240	=240	=240	=240	=240
1GG	Et	2GG	-rum.	1G	-rum.	2B-	.	1.d	.	1b-	ex-
.	.	1D	Et	.	.	1G	.	.	.	.	.
2BB-	ex-	.	.	1r	.	.	.	.	.	1g	.
2C	.	2E	ex-	.	.	2E	.	2c	.	.	.
=241	=241	=241	=241	=241	=241	=241	=241	=241	=241	=241	=241
1AA	-spe-	3.CV	-spe-	1r	.	2E	.	0c	-rum.	0a	-spe-
.	.	6D	.	.	.	2C	.	.	.	.	.
.	.	3EZ	.	.	.	.	.	.	.	.	.
1FF	.	1F	.	1A	Et	1C	-rum.	.	.	.	.
=242	=242	=242	=242	=242	=242	=242	=242	=242	=242	=242	=242
1GG	-cto	1D	.	1B-	ex-	2r	.	2r	.	2g	.
.	.	.	.	.	.	1G	Et	1d	Et	2b-	.
1r	.	1E	.	1G	.	.	.	.	.	4cc	.
.	.	.	.	.	.	.	.	.	.	4b-	.
.	.	.	.	.	.	2C	ex-	2c	ex-	4a	.
.	.	.	.	.	.	.	.	.	.	4g	.
=243	=243	=243	=243	=243	=243	=243	=243	=243	=243	=243	=243
0r	.	2D	.	0A	-spe-	2F	-spe-	2d	-spe-	2f	.
.	.	2C	.	.	.	2E	.	2e	.	1g	.
.	.	1D	-cto	.	.	1F	.	1d	.	.	.
.	.	.	.	.	.	.	.	.	.	2f#i	.
=244	=244	=244	=244	=244	=244	=244	=244	=244	=244	=244	=244
*M3/1	*	*M3/1	*	*M3/1	*	*M3/1	*	*M3/1	*	*M3/1	*
*met(C|3)	*	*met(C|3)	*	*met(C|3)	*	*met(C|3)	*	*met(C|3)	*	*met(C|3)	*
1GG	re-	0G	re-	0.G	-cto	0D	-cto	0d	.	0.g	-cto
1BB-	-sur-	.	.	.	.	.	.	.	.	.	.
1C	-rec-	1E	-sur-	.	.	1r	.	1c	.	.	.
=245	=245	=245	=245	=245	=245	=245	=245	=245	=245	=245	=245
0D	-ti-	0F	-rec-	0.r	.	0d	re-	0A	-cto	0.r	.
1GG	-o-	1G	-ti-	.	.	1B-	-sur-	1r	.	.	.
=246	=246	=246	=246	=246	=246	=246	=246	=246	=246	=246	=246
0AA	-nem	1F	-o-	0.r	.	0c	-rec-	0.r	.	0a	re-
.	.	1E	.	.	.	.	.	.	.	.	.
1r	.	1D	.	.	.	1d	-ti-	.	.	1f	-sur-
=247	=247	=247	=247	=247	=247	=247	=247	=247	=247	=247	=247
1r	.	0E	.	0.r	.	1c	-o-	0.r	.	0g	-re-
1G	mor-	.	.	.	.	1B-	.	.	.	.	.
1F	-tu-	1F	.	.	.	1A	.	.	.	1a	-cti-
=248	=248	=248	=248	=248	=248	=248	=248	=248	=248	=248	=248
1E	.	1G	.	0.r	.	1.c	.	0.r	.	1g	-o-
0D	-o-	1A	.	.	.	.	.	.	.	0f	.
.	.	.	.	.	.	2A	.	.	.	.	.
.	.	1F	.	.	.	1B-	.	.	.	.	.
=249	=249	=249	=249	=249	=249	=249	=249	=249	=249	=249	=249
0C	-rum,	1G	-nem	0.r	.	0.c	.	0g	re-	0e	-nem
.	.	1r	.	.	.	.	.	.	.	.	.
1C	mor-	1G	mor-	.	.	.	.	1e	-sur-	1r	.
=250	=250	=250	=250	=250	=250	=250	=250	=250	=250	=250	=250
0BB-	-tu-	0B-	-tu-	0d	mor-	0F	-nem	0f	-rec-	0dd	mor-
1GG	.	1B-	-o-	1B-	-tu-	1r	.	1g	-ti-	1dd	-tu-
=251	=251	=251	=251	=251	=251	=251	=251	=251	=251	=251	=251
0AA	-o-	1.A	.	0c	-o-	0.r	.	1f	-o-	0cc	-o-
.	.	.	.	.	.	.	.	1e	.	.	.
.	.	2G	.	.	.	.	.	.	.	.	.
1BB-	.	1F	.	1d	.	.	.	1d	-nem	1b-	.
=252	=252	=252	=252	=252	=252	=252	=252	=252	=252	=252	=252
1C	.	1E	.	1c	.	0.r	.	0.r	.	0a	.
1D	.	1F	.	0B-	.	.	.	.	.	.	.
1E	.	1G	.	.	.	.	.	.	.	1g	.
=253	=253	=253	=253	=253	=253	=253	=253	=253	=253	=253	=253
0F	-rum.	1D	-rum.	0A	-rum.	0F	Et	1A	mor-	0a	-rum.
.	.	1r	.	.	.	.	.	1c	-tu-	.	.
1BB-	Et	1r	.	1r	.	1B-	vi-	1d	-o-	1f	Et
=254	=254	=254	=254	=254	=254	=254	=254	=254	=254	=254	=254
1E-	.	1C	Et	0.r	.	1G	.	1c	.	0g	vi-
0D	vi-	0F	vi-	.	.	0A	.	0d	-rum.	.	.
.	.	.	.	.	.	.	.	.	.	1f#i	.
=255	=255	=255	=255	=255	=255	=255	=255	=255	=255	=255	=255
1GG	.	1D	.	1r	.	[0.G	-tam	1B-	Et	[0.g	-tam
0C	.	0E	.	1r	.	.	.	0c	vi-	.	.
.	.	.	.	1G	Et	.	.	.	.	.	.
=256	=256	=256	=256	=256	=256	=256	=256	=256	=256	=256	=256
1.GG	-tam	1D	-tam	1.B-	vi-	0.G_	.	0d	-tam	0.g]	.
.	.	1.G	ven-	.	.	.	.	.	.	.	.
2AA	.	.	.	2c	.	.	.	.	.	.	.
1BB-	.	.	.	1d	.	.	.	1r	.	.	.
.	.	2F	.	.	.	.	.	.	.	.	.
=257	=257	=257	=257	=257	=257	=257	=257	=257	=257	=257	=257
1C	ven-	1E	.	0c	.	0.G_	.	1r	.	0r	.
0GG	-tu-	0D	-tu-	.	.	.	.	1r	.	.	.
.	.	.	.	1Bni	.	.	.	1d	ven-	1g	ven-
=258	=258	=258	=258	=258	=258	=258	=258	=258	=258	=258	=258
1.C	-ri	1C	-ri	0c	-tam	0.G]	.	1.e	-tu-	1.g	-tu-
.	.	1E	se-	.	.	.	.	.	.	.	.
2BB-	.	.	.	.	.	.	.	2f	.	2a	.
1GG	.	1D	-cu-	1B-	ven-	.	.	1g	.	1b-	.
=259	=259	=259	=259	=259	=259	=259	=259	=259	=259	=259	=259
1AA	se-	0C	-li.	1A	-tu-	0E	ven-	0c	-ri	0cc	.
1C	.	.	.	1G	-ri	.	.	.	.	.	.
1D	.	1r	.	1F	.	[1F	-tu-	1f	se-	1a	-ri
=260	=260	=260	=260	=260	=260	=260	=260	=260	=260	=260	=260
1BB-	.	1r	.	1B-	se-	2F]	.	1d	.	0dd	se-
.	.	.	.	.	.	2D	-ri	.	.	.	.
0AA	-cu-	1r	.	0c	-cu-	1A	se-	1e	.	.	.
.	.	1E	A-	.	.	1A	-cu-	1e	-cu-	1cc#i	-cu-
=261	=261	=261	=261	=261	=261	=261	=261	=261	=261	=261	=261
*M2/1	*	*M2/1	*	*M2/1	*	*M2/1	*	*M2/1	*	*M2/1	*
*met(C|)	*	*met(C|)	*	*met(C|)	*	*met(C|)	*	*met(C|)	*	*met(C|)	*
0D	-li.	1.F	.	1A	-li.	1D	-li.	1d	-li.	1dd	-li.
.	.	.	.	1A	A-	[1d	A-	1f	A-	[1dd	A-
.	.	2D	.	.	.	.	.	.	.	.	.
=262	=262	=262	=262	=262	=262	=262	=262	=262	=262	=262	=262
0GG	A-	1D	-men,	1.B-	.	0d]	.	[0g	.	1dd]	.
.	.	2r	.	.	.	.	.	.	.	1b-	.
.	.	2D	a-	2G	.	.	.	.	.	.	.
=263	=263	=263	=263	=263	=263	=263	=263	=263	=263	=263	=263
0C	.	1.E	.	1G	-men,	2.c	.	1g]	.	[0cc	.
.	.	.	.	.	.	8B-L	.	.	.	.	.
.	.	.	.	.	.	8AJ	.	.	.	.	.
.	.	.	.	2r	.	1G	.	1e	.	.	.
.	.	2C	.	2G	a-	.	.	.	.	.	.
=264	=264	=264	=264	=264	=264	=264	=264	=264	=264	=264	=264
0FF	.	1C	-men,	1.A	.	1F	.	0f	.	1cc]	.
.	.	2r	.	.	.	1c	.	.	.	1a	.
.	.	2C	a-	2F	.	.	.	.	.	.	.
=265	=265	=265	=265	=265	=265	=265	=265	=265	=265	=265	=265
0BB-	.	2.D	.	0F	.	[0B-l	-men.	1d	.	[0b-	.
.	.	4E	.	.	.	.	.	.	.	.	.
.	.	2F	.	.	.	.	.	[1dl	-men.	.	.
.	.	[2D	.	.	.	.	.	.	.	.	.
=266	=266	=266	=266	=266	=266	=266	=266	=266	=266	=266	=266
[0GGl	-men.	2D]	.	[0Gl	-men.	0B-_	.	0d_	.	1b-]	.
.	.	2GG	.	.	.	.	.	.	.	.	.
.	.	2.BB-	.	.	.	.	.	.	.	1g	.
.	.	4C	.	.	.	.	.	.	.	.	.
=267	=267	=267	=267	=267	=267	=267	=267	=267	=267	=267	=267
0GG_	.	[0Dl	-men.	0G_	.	0B-_	.	0d_	.	0dd	.
=268	=268	=268	=268	=268	=268	=268	=268	=268	=268	=268	=268
0GG]	.	0D]	.	0G]	.	0B-]	.	0d]	.	0b-l	-men.
==	==	==	==	==	==	==	==	==	==	==	==
*-	*-	*-	*-	*-	*-	*-	*-	*-	*-	*-	*-
!!!RDF**kern: l=long note in original notation
!!!RDF**kern: i=editorial accidental
!!!RDF**kern: V=start of tuplet marker
!!!RDF**kern: Z=end of tuplet marker
!!!ENC: Stephanie P. Schlagel 2016/05/23
!!!END: 2016/05/23/
!!!EED: Jesse Rodin
!!!EEV: 2016/05/30/
!!!ONB: Translated from MusicXML and edited on 2016/05/30/ by Craig Sapp
!!muse2ps: T^@{OPR}^u^@{ONM}{. }@{OTL}^C^@{COM}^i2I150v100,100,100,100,100,120Q16z18c60
